%
(1)
(T9  D=0.062 CR=0 - ZMIN=-0.1102 - flat end mill)
G90 G94
G17
G20
G28 G91 Z0
G90

(Adaptive1)
M9
T9 M6
(Single Flute)
S8500 M3
G54
M9
G0 X0.103 Y-0.252
Z0.09
Z0.0787
Z0.0563
G1 Z0.0501 F20
G3 X0.1123 Y-0.2343 Z0.0446 I0.0047 J0.0088
X0.103 Y-0.252 Z0.039 I-0.0047 J-0.0088
X0.1123 Y-0.2343 Z0.0335 I0.0047 J0.0088
X0.103 Y-0.252 Z0.0279 I-0.0047 J-0.0088
X0.1123 Y-0.2343 Z0.0224 I0.0047 J0.0088
X0.103 Y-0.252 Z0.0169 I-0.0047 J-0.0088
X0.1123 Y-0.2343 Z0.0113 I0.0047 J0.0088
X0.103 Y-0.252 Z0.0058 I-0.0047 J-0.0088
X0.1123 Y-0.2343 Z0.0002 I0.0047 J0.0088
X0.103 Y-0.252 Z-0.0053 I-0.0047 J-0.0088
X0.1123 Y-0.2343 Z-0.0108 I0.0047 J0.0088
X0.103 Y-0.252 Z-0.0164 I-0.0047 J-0.0088
X0.1177 Y-0.2431 Z-0.02 I0.0047 J0.0088
X0.0977 I-0.01
X0.1177 I0.01
G1 X0.1192 Y-0.2373
X0.119 Y-0.2343
X0.1166 Y-0.2311
X0.1131 Y-0.2291
X0.1091 Y-0.2289
X0.1073 Y-0.2291
X0.1014 Y-0.2299
X0.1003 Y-0.23
X0.0991 Y-0.2302
X0.0983 Y-0.2305
X0.0972 Y-0.231
G3 X0.0961 Y-0.2354 I0.0024 J-0.003
X0.1031 Y-0.2325 I0.0035 J0.0014
X0.0991 Y-0.2302 I-0.0035 J-0.0014
G1 X0.0986 Y-0.2303
X0.098 Y-0.2305
X0.0972 Y-0.231
X0.0964 Y-0.2316
X0.0955 Y-0.2324
X0.0948 Y-0.2333
X0.0945 Y-0.2339
X0.0942 Y-0.2345
X0.094 Y-0.2351
X0.0939 Y-0.2356
X0.0938 Y-0.2362
X0.0937 Y-0.238
Y-0.2473
Y-0.2487
Y-0.2505
X0.0938 Y-0.252
X0.0969 Y-0.2558
X0.1012 Y-0.2582
X0.106 Y-0.2587
X0.1107 Y-0.2573
G3 X0.1143 Y-0.247 I-0.0042 J0.0072
X0.0937 Y-0.2505 I-0.0099 J-0.0039
G1 Y-0.2543
X0.0938 Y-0.2555
X0.0939 Y-0.2561
X0.094 Y-0.2566
X0.0942 Y-0.2572
X0.0945 Y-0.2577
X0.0948 Y-0.2583
X0.0953 Y-0.2589
X0.0959 Y-0.2595
X0.0966 Y-0.2602
X0.0973 Y-0.2607
X0.098 Y-0.2611
X0.0986 Y-0.2613
X0.0996 Y-0.2615
X0.1005 Y-0.2616
X0.1015 Y-0.2615
X0.1026 Y-0.2612
X0.1038 Y-0.2609
X0.105 Y-0.2603
X0.1179 Y-0.2535
X0.123 Y-0.2504
X0.1256 Y-0.2457
X0.1261 Y-0.2403
X0.1244 Y-0.2352
X0.1209 Y-0.2312
X0.116 Y-0.2288
X0.1106 Y-0.2286
G3 X0.1058 Y-0.2362 I0.0012 J-0.0061
G1 X0.1092 Y-0.2494
G3 X0.1179 Y-0.2535 I0.006 J0.0015
G1 X0.1271 Y-0.2486
X0.1296 Y-0.2471
X0.1331 Y-0.2422
X0.1324 Y-0.2361
X0.1291 Y-0.2309
X0.1239 Y-0.2278
X0.1178 Y-0.2274
G3 X0.1152 Y-0.2286 I0.0014 J-0.0068
X0.1271 Y-0.2486 I0.0068 J-0.0095
G1 X0.1344 Y-0.2447
X0.1369 Y-0.2432
X0.1399 Y-0.238
X0.1388 Y-0.2328
X0.1355 Y-0.2286
X0.1308 Y-0.2262
X0.1255 Y-0.226
G3 X0.1234 Y-0.227 I0.0012 J-0.0054
X0.1344 Y-0.2447 I0.0064 J-0.0083
G1 X0.1414 Y-0.241
X0.1427 Y-0.2403
X0.1443 Y-0.2378
Y-0.2325
X0.1418 Y-0.2279
X0.1373 Y-0.225
X0.1321 Y-0.2247
G3 X0.1293 Y-0.2265 I0.0011 J-0.0046
X0.1414 Y-0.241 I0.0078 J-0.0057
G1 X0.1446 Y-0.2393
X0.1472 Y-0.2378
X0.1489 Y-0.2353
X0.149 Y-0.2304
X0.1467 Y-0.2262
X0.1425 Y-0.2237
X0.1376 Y-0.2236
G3 X0.1362 Y-0.2242 I0.0014 J-0.0051
X0.1446 Y-0.2393 I0.0046 J-0.0073
G1 X0.1493 Y-0.2368
X0.1519 Y-0.2353
X0.1535 Y-0.2328
Y-0.2282
X0.151 Y-0.2242
X0.147 Y-0.222
X0.1423 Y-0.2222
X0.1415 Y-0.2226
G3 X0.1493 Y-0.2368 I0.0042 J-0.0069
G1 X0.154 Y-0.2344
X0.1562 Y-0.233
X0.1579 Y-0.2305
X0.1578 Y-0.2262
X0.1554 Y-0.2225
X0.1515 Y-0.2205
X0.1472 Y-0.2207
X0.1464 Y-0.2211
G3 X0.154 Y-0.2344 I0.0043 J-0.0064
G1 X0.1573 Y-0.2326
X0.1586 Y-0.2315
X0.1595 Y-0.2308
X0.1603 Y-0.2302
X0.1611 Y-0.2295
X0.162 Y-0.2284
X0.1623 Y-0.2281
X0.1615 Y-0.2274
X0.161 Y-0.2273
G3 X0.1595 Y-0.2295 I-0.0008 J-0.0011
X0.1611 I0.0008 J0.0011
G1 X0.1615 Y-0.2291
X0.1619 Y-0.2286
X0.1623 Y-0.2281
X0.1626 Y-0.2275
X0.1629 Y-0.2269
X0.163 Y-0.2263
X0.1632 Y-0.2249
Y-0.2246
G3 X0.1554 Y-0.2255 I-0.0039 J-0.0005
X0.1614 Y-0.2284 I0.0039 J0.0005
X0.163 Y-0.2263 I-0.002 J0.0034
G1 X0.1632 Y-0.2257
Y-0.2251
Y-0.2246
Y-0.224
X0.1631 Y-0.2234
X0.1629 Y-0.2228
X0.1627 Y-0.2222
X0.1624 Y-0.2216
X0.1615 Y-0.2205
X0.161 Y-0.2199
X0.1604 Y-0.2193
X0.1595 Y-0.2187
X0.1586 Y-0.2183
X0.1581 Y-0.2181
X0.1575 Y-0.218
X0.1569 Y-0.2179
X0.1563
X0.1557 Y-0.218
X0.1551 Y-0.2181
X0.154 Y-0.2184
X0.1446 Y-0.2215
X0.14 Y-0.223
X0.1359 Y-0.224
X0.1213 Y-0.2268
X0.1166 Y-0.2276
X0.1091 Y-0.2289
X0.1083 Y-0.2292 Z-0.0198
X0.1075 Y-0.2295 Z-0.0193
X0.107 Y-0.2297 Z-0.0185
X0.1069 Y-0.2298 Z-0.0176
G0 Z0.0787
X0.2404 Y0.0275
Z0.0563
G1 Z0.0501 F20
G3 X0.2497 Y0.0452 Z0.0446 I0.0047 J0.0088
X0.2404 Y0.0275 Z0.039 I-0.0047 J-0.0088
X0.2497 Y0.0452 Z0.0335 I0.0047 J0.0088
X0.2404 Y0.0275 Z0.0279 I-0.0047 J-0.0088
X0.2497 Y0.0452 Z0.0224 I0.0047 J0.0088
X0.2404 Y0.0275 Z0.0169 I-0.0047 J-0.0088
X0.2497 Y0.0452 Z0.0113 I0.0047 J0.0088
X0.2404 Y0.0275 Z0.0058 I-0.0047 J-0.0088
X0.2497 Y0.0452 Z0.0002 I0.0047 J0.0088
X0.2404 Y0.0275 Z-0.0053 I-0.0047 J-0.0088
X0.2497 Y0.0452 Z-0.0108 I0.0047 J0.0088
X0.2404 Y0.0275 Z-0.0164 I-0.0047 J-0.0088
X0.255 Y0.0364 Z-0.02 I0.0047 J0.0088
X0.235 I-0.01
X0.255 I0.01
G1 X0.2565 Y0.0422
X0.2563 Y0.0452
X0.2552 Y0.0479
X0.2514 Y0.0526
X0.2459 Y0.055
X0.2399
X0.2342 Y0.053
X0.2295 Y0.0493
X0.2262 Y0.0443
X0.2246 Y0.0385
X0.2247 Y0.0325
X0.2266 Y0.0268
X0.2301 Y0.0219
X0.2348 Y0.0182
X0.2404 Y0.016
X0.2464 Y0.0155
X0.2522 Y0.0167
X0.2575 Y0.0196
X0.2618 Y0.0238
X0.2653 Y0.0287
X0.2676 Y0.0342
X0.2686 Y0.0401
X0.2681 Y0.0461
X0.2664 Y0.0519
X0.2633 Y0.057
X0.2592 Y0.0613
X0.2541 Y0.0645
X0.2484 Y0.0665
X0.2425 Y0.0673
X0.2365 Y0.0667
X0.2307 Y0.065
X0.2255 Y0.0621
X0.2209 Y0.0583
X0.2196 Y0.0568
X0.2186 Y0.0554
X0.2176 Y0.0538
X0.2169 Y0.0522
X0.2155 Y0.0489
X0.215 Y0.0478
X0.2146 Y0.0468
X0.2125 Y0.0412
X0.2119 Y0.0353
X0.2125 Y0.0293
X0.2141 Y0.0235
X0.2151 Y0.0217
X0.2162 Y0.0203
X0.2173 Y0.0189
G3 X0.2278 Y0.0238 I0.0043 J0.0044
G1 X0.2264 Y0.0446
G3 X0.2146 Y0.0468 I-0.0062 J-0.0004
G1 X0.2105 Y0.0373
X0.2084 Y0.0327
X0.2082 Y0.0321
X0.2081 Y0.0315
X0.208 Y0.0309
X0.2081 Y0.0303
Y0.0298
X0.2082 Y0.0292
X0.2086 Y0.028
X0.2088 Y0.0275
X0.2091 Y0.0269
X0.2095 Y0.0264
X0.21 Y0.0258
X0.213 Y0.0233
X0.2146 Y0.0217
X0.2221 Y0.014
X0.2264 Y0.0099
X0.2314 Y0.0066
X0.237 Y0.0043
X0.2428 Y0.0031
X0.2488
X0.2547 Y0.0042
X0.2604 Y0.0063
X0.2655 Y0.0093
X0.2702 Y0.0131
X0.2742 Y0.0176
X0.2775 Y0.0226
X0.2785 Y0.0252
X0.279 Y0.0277
X0.2791 Y0.0303
G3 X0.2714 Y0.036 I-0.0062 J-0.0003
G1 X0.2251 Y0.0242
G3 X0.2221 Y0.014 I0.0015 J-0.006
G1 X0.224 Y0.012
X0.2261 Y0.0093
X0.2286 Y0.0059
X0.2294 Y0.0047
X0.2303 Y0.0033
X0.2337 Y-0.0017
X0.2385 Y-0.0053
X0.2441 Y-0.0075
X0.25 Y-0.0084
X0.256 Y-0.0082
X0.2619 Y-0.0071
X0.2676 Y-0.0051
X0.2695 Y-0.0041
X0.2746 Y-0.0002
X0.278 Y0.0053
X0.2792 Y0.0116
G3 X0.2722 Y0.0175 I-0.0062 J-0.0002
G1 X0.2349 Y0.0125
G3 X0.2303 Y0.0033 I0.0008 J-0.0061
G1 X0.2323 Y0
X0.2333 Y-0.0019
X0.2345 Y-0.0047
X0.2357 Y-0.0072
X0.2383 Y-0.0126
X0.243 Y-0.0163
X0.2485 Y-0.0187
X0.2544 Y-0.02
X0.2604 Y-0.0202
X0.2663 Y-0.0194
X0.2667 Y-0.0193
X0.2717 Y-0.0168
X0.2757 Y-0.0129
X0.2783 Y-0.0079
X0.2792 Y-0.0024
G3 X0.2725 Y0.0036 I-0.0062 J-0.0002
G1 X0.241 Y0.0012
G3 X0.2357 Y-0.0072 I0.0005 J-0.0062
G1 X0.2406 Y-0.0187
X0.2433 Y-0.024
X0.2479 Y-0.0279
X0.2533 Y-0.0305
X0.2591 Y-0.0318
X0.2652 Y-0.0319
X0.2707 Y-0.0297
X0.2752 Y-0.0257
X0.2782 Y-0.0205
X0.2792 Y-0.0146
G3 X0.2726 Y-0.0086 I-0.0062 J-0.0002
G1 X0.246 Y-0.0102
G3 X0.2406 Y-0.0187 I0.0004 J-0.0062
G1 X0.2458 Y-0.0305
X0.2484 Y-0.0359
X0.2531 Y-0.0398
X0.2586 Y-0.0421
X0.2593 Y-0.0422
X0.2652 Y-0.0419
X0.2708 Y-0.0397
X0.2753 Y-0.0357
X0.2782 Y-0.0305
X0.2792 Y-0.0246
G3 X0.272 Y-0.0187 I-0.0062 J-0.0002
G1 X0.2506 Y-0.0222
G3 X0.2458 Y-0.0305 I0.001 J-0.0061
G1 X0.2467 Y-0.0326
X0.2473 Y-0.0342
X0.2484 Y-0.0373
X0.2492 Y-0.0399
X0.2512 Y-0.0455
X0.2557 Y-0.0495
X0.2613 Y-0.0505
X0.2668 Y-0.0496
X0.2718 Y-0.0468
X0.2755 Y-0.0426
X0.2776 Y-0.0374
G3 X0.2708 Y-0.0301 I-0.0061 J0.0011
G1 X0.2544 Y-0.0322
G3 X0.2492 Y-0.0399 I0.0008 J-0.0062
G1 X0.2498 Y-0.042
X0.2506 Y-0.0466
X0.2508 Y-0.0481
X0.2512 Y-0.051
X0.2545 Y-0.056
X0.2596 Y-0.0577
X0.265 Y-0.0574
X0.2698 Y-0.0552
X0.2736 Y-0.0513
X0.2757 Y-0.0464
G3 X0.2684 Y-0.0392 I-0.0061 J0.0011
G1 X0.2558 Y-0.0415
G3 X0.2508 Y-0.0481 I0.0011 J-0.0061
G1 X0.2511 Y-0.0513
X0.2515 Y-0.055
X0.2519 Y-0.058
X0.2534 Y-0.0606
X0.2578 Y-0.0646
X0.2629 Y-0.0651
X0.2678 Y-0.0634
X0.2716 Y-0.06
X0.2737 Y-0.0553
G3 Y-0.0526 I-0.0077 J0.0014
X0.2515 Y-0.055 I-0.0111 J-0.0018
G1 X0.2523 Y-0.0639
X0.2525 Y-0.0654
X0.254 Y-0.0679
X0.258 Y-0.0703
X0.2625 Y-0.0708
X0.2669 Y-0.0694
X0.2703 Y-0.0664
X0.2722 Y-0.0623
G3 X0.2718 Y-0.0594 I-0.005 J0.0009
X0.2523 Y-0.0639 I-0.0094 J-0.004
G1 X0.2527 Y-0.069
X0.2531 Y-0.072
X0.2549 Y-0.0744
X0.2596 Y-0.0763
X0.2645 Y-0.0757
X0.2686 Y-0.0728
X0.2708 Y-0.0684
G3 X0.2707 Y-0.0662 I-0.0049 J0.0009
X0.2527 Y-0.069 I-0.0089 J-0.0023
G1 X0.2532 Y-0.0746
X0.2534 Y-0.0761
X0.2547 Y-0.0788
X0.2589 Y-0.0809
X0.2635 Y-0.0807
X0.2674 Y-0.0782
X0.2696 Y-0.074
G3 X0.2695 Y-0.0721 I-0.0044 J0.0008
X0.2532 Y-0.0746 I-0.008 J-0.0021
G1 X0.2536 Y-0.0793
X0.2538 Y-0.0808
X0.255 Y-0.0835
X0.2588 Y-0.0855
X0.2629 Y-0.0853
X0.2665 Y-0.083
X0.2684 Y-0.0793
G3 Y-0.0777 I-0.0045 J0.0008
X0.2536 Y-0.0793 I-0.0073 J-0.0014
G1 X0.254 Y-0.084
X0.2541 Y-0.0853
Y-0.0863
X0.2545 Y-0.0875
G3 X0.259 Y-0.085 I0.0023 J0.0013
X0.2548 Y-0.0845 I-0.0023 J-0.0013
X0.2541 Y-0.0863 I0.002 J-0.0018
G1 X0.2543 Y-0.0869
X0.2545 Y-0.0875
X0.255 Y-0.0886
X0.2557 Y-0.0897
X0.2561 Y-0.0902
X0.2566 Y-0.0907
X0.2576 Y-0.0913
X0.2584 Y-0.0917
G3 X0.2607 Y-0.0839 I0.0011 J0.0039
X0.2555 Y-0.0876 I-0.0011 J-0.0039
X0.2566 Y-0.0907 I0.0041 J-0.0001
G1 X0.2572 Y-0.0911
X0.2578 Y-0.0914
X0.2584 Y-0.0917
X0.259 Y-0.0919
X0.2596 Y-0.092
X0.2601 Y-0.0921
X0.2607
X0.2613
X0.2619 Y-0.092
X0.2625 Y-0.0918
X0.2631 Y-0.0916
X0.2636 Y-0.0913
X0.2642 Y-0.0909
X0.2648 Y-0.0905
X0.2655 Y-0.0897
X0.266 Y-0.089
X0.2662 Y-0.0886
X0.2664 Y-0.0881
X0.2666 Y-0.0875
X0.2787 Y-0.0326
X0.2791 Y-0.0303
X0.2792 Y-0.028
Y0.028
X0.2791 Y0.0303
X0.2787 Y0.0327
X0.2735 Y0.056
X0.272 Y0.0618
X0.269 Y0.067
X0.265 Y0.0715
X0.2603 Y0.0751
X0.2549 Y0.0779
X0.2492 Y0.0797
X0.2433 Y0.0805
X0.2373
X0.2367 Y0.0804
X0.2315 Y0.0787
X0.227 Y0.0755
X0.2237 Y0.0711
X0.222 Y0.0658
G3 X0.2266 Y0.059 I0.0061 J-0.0008
G1 X0.2659 Y0.0489
G3 X0.2735 Y0.056 I0.0015 J0.006
G1 X0.2699 Y0.0726
X0.2683 Y0.0784
X0.2649 Y0.0833
X0.2604 Y0.0873
X0.2553 Y0.0904
X0.2497 Y0.0925
X0.2438 Y0.0936
X0.2411 Y0.0937
X0.2348 Y0.0925
X0.2294 Y0.0892
X0.2256 Y0.0841
X0.224 Y0.078
G3 X0.2291 Y0.0711 I0.0061 J-0.0008
G1 X0.2628 Y0.0653
G3 X0.2699 Y0.0726 I0.001 J0.0061
G1 X0.2668 Y0.0866
X0.2666 Y0.0877
X0.2664 Y0.0887
X0.2655 Y0.0909
X0.2653 Y0.0913
G3 X0.2541 Y0.086 I-0.0056 J-0.0027
G1 X0.2546 Y0.085
G3 X0.2664 Y0.0887 I0.0056 J0.0026
G1 X0.266 Y0.0899
X0.2649 Y0.0923
X0.2622 Y0.0976
X0.2575 Y0.1014
X0.2522 Y0.1041
X0.2464 Y0.1058
X0.2404 Y0.1062
X0.24 Y0.1061
X0.234 Y0.1043
X0.2291 Y0.1005
X0.2257 Y0.0953
X0.2244 Y0.0892
G3 X0.2308 Y0.083 I0.0062
G1 X0.2593 Y0.0837
G3 X0.2649 Y0.0923 I-0.0002 J0.0062
G1 X0.2595 Y0.1041
X0.2567 Y0.1094
X0.2523 Y0.1135
X0.2468 Y0.116
X0.2455 Y0.1162
X0.2393 Y0.1163
X0.2335 Y0.1142
X0.2288 Y0.1103
X0.2257 Y0.105
X0.2246 Y0.0989
Y0.0933
X0.2241 Y0.0793
X0.224 Y0.078
X0.2217 Y0.0642
X0.2215 Y0.0636
X0.2169 Y0.0522
G3 X0.228 Y0.0469 I0.0058 J-0.0021
G1 X0.2591 Y0.0985
G3 X0.2595 Y0.1041 I-0.0053 J0.0032
G1 X0.2541 Y0.1157
X0.2513 Y0.121
X0.2457 Y0.1236
X0.2396 Y0.1241
X0.2338 Y0.1223
X0.2289 Y0.1186
X0.2257 Y0.1134
X0.2246 Y0.1073
Y0.0989
G3 X0.2347 Y0.0943 I0.0062 J0.0002
G1 X0.2523 Y0.1085
G3 X0.2541 Y0.1157 I-0.0039 J0.0048
G1 X0.2503 Y0.1239
X0.2489 Y0.1266
X0.2447 Y0.1308
X0.2385 Y0.1316
X0.2326 Y0.1299
X0.2277 Y0.1261
X0.2247 Y0.1206
X0.2241 Y0.1145
G3 X0.2327 Y0.1096 I0.0061 J0.0008
G1 X0.2471 Y0.1158
G3 X0.2503 Y0.1239 I-0.0025 J0.0057
G1 X0.2465 Y0.1321
X0.2451 Y0.1347
X0.2403 Y0.1384
X0.2343 Y0.1383
X0.2288 Y0.136
X0.2247 Y0.1316
X0.2226 Y0.126
X0.2229 Y0.12
X0.2237 Y0.1167
X0.224 Y0.1153
X0.2243 Y0.112
X0.2246 Y0.1073
G3 X0.2364 Y0.105 I0.0062 J0.0002
G1 X0.2464 Y0.1271
G3 X0.2465 Y0.1321 I-0.0056 J0.0026
G1 X0.2433 Y0.1391
X0.2419 Y0.1417
X0.2371 Y0.1454
X0.2312 Y0.1451
X0.2259 Y0.1425
X0.2221 Y0.138
X0.2203 Y0.1323
X0.221 Y0.1264
G3 X0.2305 Y0.1236 I0.0058 J0.0021
G1 X0.2413 Y0.1317
G3 X0.2433 Y0.1391 I-0.0037 J0.005
G1 X0.2407 Y0.1447
X0.2392 Y0.1467
X0.2373 Y0.149
X0.2321 Y0.152
X0.2269 Y0.1511
X0.2224 Y0.1484
X0.2192 Y0.1442
X0.2179 Y0.1391
X0.2185 Y0.1339
X0.2211 Y0.126
X0.2225 Y0.1213
X0.2229 Y0.12
G3 X0.2348 Y0.1202 I0.006 J0.0017
G1 X0.2401 Y0.1417
G3 X0.2392 Y0.1467 I-0.006 J0.0015
G1 X0.2344 Y0.1531
X0.2324 Y0.1554
X0.2297 Y0.1566
X0.2238 Y0.1577
X0.2192 Y0.1553
X0.216 Y0.1512
X0.2148 Y0.1462
X0.2159 Y0.1411
X0.2163 Y0.14
X0.2181 Y0.1353
X0.2185 Y0.1339
G3 X0.2302 I0.0058 J0.0021
G1 X0.2351 Y0.1474
G3 X0.2344 Y0.1531 I-0.0058 J0.0021
G1 X0.2293 Y0.1597
X0.2274 Y0.162
X0.2245 Y0.163
X0.2199 Y0.1625
X0.2159 Y0.1601
X0.2132 Y0.1564
X0.2122 Y0.1518
X0.2132 Y0.1473
G3 X0.2148 Y0.1453 I0.0046 J0.0022
X0.2293 Y0.1597 I0.006 J0.0084
G1 X0.2258 Y0.1644
X0.2238 Y0.1667
X0.221 Y0.1677
X0.2158 Y0.1668
X0.2117 Y0.1634
X0.2098 Y0.1584
X0.2106 Y0.1531
X0.2159 Y0.1411
G3 X0.2276 Y0.144 I0.0056 J0.0027
G1 X0.2269 Y0.1611
G3 X0.2258 Y0.1644 I-0.0062 J-0.0003
G1 X0.2219 Y0.1694
X0.221 Y0.1706
X0.2183 Y0.1719
X0.2132 Y0.1712
X0.2093 Y0.168
X0.2075 Y0.1632
X0.2083 Y0.1582
G3 X0.2101 Y0.1563 I0.0039 J0.002
X0.2219 Y0.1694 I0.0045 J0.0079
G1 X0.2194 Y0.1727
X0.2175 Y0.175
X0.2147 Y0.1761
X0.2098 Y0.1751
X0.2061 Y0.1716
X0.2048 Y0.1668
X0.2061 Y0.1619
X0.2081 Y0.1587
X0.2106 Y0.1531
G3 X0.2183 Y0.1521 I0.0042 J0.002
X0.2194 Y0.1727 I-0.0124 J0.011
G1 X0.2159 Y0.1773
X0.2149 Y0.1785
X0.2123 Y0.18
X0.208 Y0.1795
X0.2045 Y0.177
X0.2023 Y0.1733
X0.2022 Y0.1689
X0.204 Y0.165
G3 X0.2059 Y0.1637 I0.0032 J0.0027
X0.2159 Y0.1773 I0.0027 J0.0085
G1 X0.2134 Y0.1807
X0.2114 Y0.1829
X0.2086 Y0.184
X0.2056 Y0.1841
X0.2016 Y0.1819
X0.1991 Y0.178
X0.1988 Y0.1734
X0.2007 Y0.1692
G3 X0.2016 Y0.1684 I0.0032 J0.0028
X0.2134 Y0.1807 I0.0047 J0.0073
G1 X0.21 Y0.1851
X0.208 Y0.1874
X0.2052 Y0.1885
X0.2022 Y0.1886
X0.198 Y0.1862
X0.1955 Y0.1821
X0.1953 Y0.1773
X0.1976 Y0.173
G3 X0.1987 Y0.1722 I0.0031 J0.003
X0.21 Y0.1851 I0.0041 J0.0078
G1 X0.206 Y0.1903
X0.2053 Y0.1912
X0.2026 Y0.1926
X0.1996 Y0.193
X0.195 Y0.1907
X0.1921 Y0.1863
X0.1919 Y0.1811
X0.1943 Y0.1765
X0.196 Y0.1748
X0.1979 Y0.1727
X0.2016 Y0.168
X0.2053 Y0.1633
X0.2061 Y0.1619
G3 X0.2169 Y0.1681 I0.0052 J0.0034
G1 X0.2071 Y0.1882
X0.206 Y0.1903
X0.2043 Y0.1926
X0.2036 Y0.1933
X0.203 Y0.1939
X0.2017 Y0.195
X0.2005 Y0.1959
X0.1976 Y0.1969
X0.1917 Y0.1965
X0.1886 Y0.1935
X0.1872 Y0.1894
X0.1876 Y0.1851
X0.1898 Y0.1813
X0.1904 Y0.1808
G3 X0.2017 Y0.195 I0.0051 J0.0075
G1 X0.1969 Y0.1991
X0.1945 Y0.2009
X0.1916 Y0.2014
X0.1886 Y0.2009
X0.1849 Y0.198
X0.183 Y0.1937
X0.1834 Y0.189
X0.186 Y0.185
G3 X0.187 Y0.1843 I0.0029 J0.0033
X0.1969 Y0.1991 I0.0038 J0.0081
G1 X0.1921 Y0.2032
X0.1909 Y0.2041
X0.188 Y0.2049
X0.185 Y0.2047
X0.1848
X0.1809 Y0.2018
X0.1789 Y0.1975
X0.1793 Y0.1927
X0.182 Y0.1887
G3 X0.1837 Y0.1878 I0.0029 J0.0033
X0.1921 Y0.2032 I0.0023 J0.0087
G1 X0.1876 Y0.207
X0.1864 Y0.2079
X0.1834 Y0.2086
X0.1794 Y0.2071
X0.1764 Y0.204
X0.1751 Y0.1998
X0.1758 Y0.1955
X0.1783 Y0.192
G3 X0.1808 Y0.191 I0.0028 J0.0034
X0.1876 Y0.207 I0.0005 J0.0092
G1 X0.184 Y0.21
X0.1828 Y0.2109
X0.18 Y0.2118
X0.177 Y0.2116
X0.1731 Y0.2087
X0.1712 Y0.2043
X0.1716 Y0.1995
X0.1743 Y0.1955
G3 X0.1762 Y0.1946 I0.0027 J0.0033
X0.184 Y0.21 I0.0018 J0.0088
G1 X0.1796 Y0.2138
X0.1784 Y0.2147
X0.1755 Y0.2154
X0.1725 Y0.2149
X0.1685 Y0.2117
X0.1668 Y0.2068
X0.1677 Y0.2018
X0.1712 Y0.1979
G3 X0.1736 Y0.1973 I0.0022 J0.0038
X0.1796 Y0.2138 I-0.0003 J0.0095
G1 X0.176 Y0.2168
X0.1736 Y0.2186
X0.1707 Y0.219
X0.1648 Y0.2178
X0.1619 Y0.2138
X0.1613 Y0.2088
X0.1629 Y0.2041
X0.1666 Y0.2007
G3 X0.1752 Y0.2039 I0.0028 J0.0055
G1 X0.1776 Y0.2099
G3 X0.176 Y0.2168 I-0.0057 J0.0023
G1 X0.1712 Y0.2209
X0.1689 Y0.2227
X0.1659 Y0.2234
X0.163 Y0.223
X0.159 Y0.2201
X0.1567 Y0.2159
X0.1565 Y0.2111
X0.1583 Y0.2066
X0.1619 Y0.2034
G3 X0.1707 Y0.207 I0.0028 J0.0055
G1 X0.173 Y0.2144
G3 X0.1712 Y0.2209 I-0.0059 J0.0019
G1 X0.1663 Y0.2251
X0.1651 Y0.226
X0.1622 Y0.2269
X0.1592 Y0.2268
X0.1535 Y0.2249
X0.1508 Y0.2203
X0.1504 Y0.2151
X0.1523 Y0.2101
X0.1562 Y0.2065
G3 X0.1649 Y0.21 I0.0028 J0.0055
G1 X0.1679 Y0.2184
G3 X0.1663 Y0.2251 I-0.0058 J0.0021
G1 X0.1621 Y0.2287
X0.1597 Y0.2305
X0.1569 Y0.2315
X0.1509 Y0.2314
X0.147 Y0.2278
X0.1449 Y0.223
X0.145 Y0.2177
X0.1472 Y0.2129
X0.1511 Y0.2094
G3 X0.1597 Y0.2125 I0.0028 J0.0055
G1 X0.1636 Y0.2217
G3 X0.1621 Y0.2287 I-0.0057 J0.0024
G1 X0.1586 Y0.2316
X0.1573 Y0.2326
X0.156 Y0.2333
X0.154 Y0.2344
X0.1513 Y0.2357
X0.1483 Y0.2356
X0.1425 Y0.2338
X0.1392 Y0.2287
X0.1385 Y0.2226
X0.1407 Y0.2168
X0.1452 Y0.2127
G3 X0.1476 Y0.2121 I0.0026 J0.0052
X0.154 Y0.2344 I0.0004 J0.012
G1 X0.1472 Y0.238
X0.1444 Y0.2393
X0.1385 Y0.2388
X0.1379 Y0.2384
X0.1341 Y0.2344
X0.1323 Y0.2291
X0.1328 Y0.2236
X0.1355 Y0.2188
X0.14 Y0.2155
G3 X0.1439 Y0.2151 I0.0025 J0.0052
X0.1472 Y0.238 I-0.003 J0.0121
G1 X0.1409 Y0.2413
X0.1382 Y0.2426
X0.1352 Y0.2424
X0.1296 Y0.2404
X0.1266 Y0.2358
X0.1256 Y0.2304
X0.1268 Y0.225
X0.13 Y0.2206
X0.1348 Y0.2177
G3 X0.1383 I0.0018 J0.0057
X0.1409 Y0.2413 I-0.0038 J0.0124
G1 X0.1339 Y0.245
X0.1325 Y0.2457
X0.1295 Y0.2458
X0.1237 Y0.2444
X0.1202 Y0.2396
X0.1188 Y0.2337
X0.12 Y0.2279
X0.1234 Y0.223
X0.1286 Y0.2199
G3 X0.1366 Y0.2256 I0.0018 J0.0059
G1 X0.137 Y0.2395
G3 X0.1339 Y0.245 I-0.0062 J0.0002
G1 X0.1285 Y0.2479
X0.1258 Y0.2492
X0.1228
X0.117 Y0.2476
X0.1133 Y0.2426
X0.1119 Y0.2365
X0.1131 Y0.2304
X0.1167 Y0.2253
X0.1221 Y0.2222
G3 X0.13 Y0.2274 I0.0018 J0.0059
G1 X0.1315 Y0.2419
G3 X0.1285 Y0.2479 I-0.0062 J0.0006
G1 X0.1213 Y0.2517
X0.1186 Y0.253
X0.1126 Y0.2525
X0.1076 Y0.2493
X0.1048 Y0.2439
X0.1043 Y0.2379
X0.1061 Y0.2321
X0.1098 Y0.2274
X0.1151 Y0.2245
G3 X0.123 Y0.2299 I0.0017 J0.0059
G1 X0.1244 Y0.2458
G3 X0.1213 Y0.2517 I-0.0062 J0.0005
G1 X0.1152 Y0.2549
X0.1125 Y0.2562
X0.1095 Y0.2566
X0.1037 Y0.2553
X0.0989 Y0.2517
X0.0955 Y0.2467
X0.0938 Y0.241
X0.0937 Y0.2363
G3 X0.1045 Y0.2323 I0.0062 J0.0002
G1 X0.1167 Y0.2453
G3 X0.1152 Y0.2549 I-0.0045 J0.0042
G1 X0.1073 Y0.2591
X0.106 Y0.2598
X0.105 Y0.2604
X0.1034 Y0.261
X0.1025 Y0.2613
X0.1015 Y0.2615
X0.101 Y0.2612
X0.1008 Y0.2602
G3 X0.1042 Y0.2581 I0.0042 J0.0029
X0.105 Y0.2604 I0.0002 J0.0012
G1 X0.1038 Y0.2609
X0.1024 Y0.2613
X0.1015 Y0.2616
X0.1005
X0.0996
X0.0986 Y0.2613
X0.098 Y0.2611
X0.0973 Y0.2607
X0.0966 Y0.2603
X0.0959 Y0.2596
X0.0953 Y0.2589
X0.0948 Y0.2583
X0.0945 Y0.2578
X0.0942 Y0.2572
X0.094 Y0.2567
X0.0939 Y0.2561
X0.0938 Y0.2555
X0.0937 Y0.2543
X0.0938 Y0.2357
Y0.2351
X0.0939 Y0.2345
X0.0941 Y0.2339
X0.0943 Y0.2333
X0.0947 Y0.2328
X0.095 Y0.2322
X0.0955 Y0.2316
X0.0962 Y0.2311
X0.0971 Y0.2304
X0.098 Y0.2299
X0.1026 Y0.2286
X0.1213 Y0.2224
X0.1353 Y0.2176
X0.14 Y0.2155
X0.1461 Y0.2122
X0.168 Y0.2
X0.1726 Y0.197
X0.182 Y0.1887
X0.188 Y0.1831
X0.1892 Y0.182
X0.1943 Y0.1765
X0.1951 Y0.176 Z-0.0198
X0.1957 Y0.1756 Z-0.0193
X0.1962 Y0.1753 Z-0.0185
X0.1963 Y0.1752 Z-0.0176
G0 Z0.0787
X-0.2268 Y-0.0088
Z0.0563
G1 Z0.0501 F20
G3 X-0.2175 Y0.0089 Z0.0446 I0.0047 J0.0088
X-0.2268 Y-0.0088 Z0.039 I-0.0047 J-0.0088
X-0.2175 Y0.0089 Z0.0335 I0.0047 J0.0088
X-0.2268 Y-0.0088 Z0.0279 I-0.0047 J-0.0088
X-0.2175 Y0.0089 Z0.0224 I0.0047 J0.0088
X-0.2268 Y-0.0088 Z0.0169 I-0.0047 J-0.0088
X-0.2175 Y0.0089 Z0.0113 I0.0047 J0.0088
X-0.2268 Y-0.0088 Z0.0058 I-0.0047 J-0.0088
X-0.2175 Y0.0089 Z0.0002 I0.0047 J0.0088
X-0.2268 Y-0.0088 Z-0.0053 I-0.0047 J-0.0088
X-0.2175 Y0.0089 Z-0.0108 I0.0047 J0.0088
X-0.2268 Y-0.0088 Z-0.0164 I-0.0047 J-0.0088
X-0.2122 Y0 Z-0.02 I0.0047 J0.0088
X-0.2322 I-0.01
X-0.2122 I0.01
G1 X-0.2107 Y0.0058
X-0.2109 Y0.0088
X-0.2121 Y0.0116
X-0.2158 Y0.0162
X-0.2214 Y0.0186
X-0.2274 Y0.0187
X-0.233 Y0.0167
X-0.2377 Y0.0129
X-0.241 Y0.0079
X-0.2426 Y0.0022
X-0.2425 Y-0.0038
X-0.2406 Y-0.0095
X-0.2371 Y-0.0144
X-0.2324 Y-0.0181
X-0.2268 Y-0.0203
X-0.2209 Y-0.0208
X-0.215 Y-0.0196
X-0.2097 Y-0.0168
X-0.2054 Y-0.0126
X-0.202 Y-0.0077
X-0.1996 Y-0.0022
X-0.1986 Y0.0038
X-0.1991 Y0.0097
X-0.2008 Y0.0155
X-0.2039 Y0.0206
X-0.2081 Y0.0249
X-0.2131 Y0.0281
X-0.2188 Y0.0301
X-0.2247 Y0.0309
X-0.2307 Y0.0303
X-0.2365 Y0.0286
X-0.2417 Y0.0258
X-0.2464 Y0.0219
X-0.2502 Y0.0173
X-0.253 Y0.012
X-0.2548 Y0.0063
X-0.2556 Y0.0003
X-0.2552 Y-0.0056
X-0.2538 Y-0.0115
X-0.2513 Y-0.0169
X-0.2478 Y-0.0219
X-0.2436 Y-0.0261
X-0.2387 Y-0.0295
X-0.2332 Y-0.032
X-0.2274 Y-0.0335
X-0.2214 Y-0.0339
X-0.2154 Y-0.0332
X-0.2097 Y-0.0315
X-0.2043 Y-0.0289
X-0.1994 Y-0.0255
X-0.195 Y-0.0213
X-0.1914 Y-0.0166
X-0.1884 Y-0.0114
X-0.1864 Y-0.0057
X-0.1852 Y0.0002
X-0.1849 Y0.0062
X-0.1855 Y0.0121
X-0.1871 Y0.0179
X-0.1894 Y0.0234
X-0.1927 Y0.0285
X-0.1966 Y0.033
X-0.2012 Y0.0369
X-0.2063 Y0.0401
X-0.2118 Y0.0425
X-0.2175 Y0.0441
X-0.2235 Y0.0448
X-0.2295 Y0.0446
X-0.2354 Y0.0437
X-0.2412 Y0.0419
X-0.2466 Y0.0393
X-0.2516 Y0.0361
X-0.2562 Y0.0322
X-0.2602 Y0.0277
X-0.2636 Y0.0228
X-0.2663 Y0.0174
X-0.2683 Y0.0118
X-0.2695 Y0.0059
X-0.27 Y-0.0001
X-0.2697 Y-0.0061
X-0.2686 Y-0.012
X-0.2669 Y-0.0177
X-0.2644 Y-0.0232
X-0.2612 Y-0.0283
X-0.2574 Y-0.0329
X-0.2531 Y-0.0371
X-0.2483 Y-0.0407
X-0.2431 Y-0.0436
X-0.2375 Y-0.0459
X-0.2317 Y-0.0475
X-0.2258 Y-0.0483
X-0.2198 Y-0.0484
X-0.2138 Y-0.0478
X-0.208 Y-0.0464
X-0.2023 Y-0.0444
X-0.1969 Y-0.0417
X-0.1919 Y-0.0385
X-0.1873 Y-0.0347
X-0.1831 Y-0.0304
X-0.1794 Y-0.0256
X-0.1763 Y-0.0205
X-0.1737 Y-0.0151
X-0.1718 Y-0.0094
X-0.1705 Y-0.0035
X-0.1699 Y0.0024
X-0.17 Y0.0084
X-0.1707 Y0.0144
X-0.172 Y0.0202
X-0.174 Y0.0259
X-0.1766 Y0.0313
X-0.1798 Y0.0364
X-0.1835 Y0.0411
X-0.1877 Y0.0454
X-0.1924 Y0.0492
X-0.1974 Y0.0525
X-0.2027 Y0.0552
X-0.2083 Y0.0573
X-0.2141 Y0.0588
X-0.2201 Y0.0598
X-0.2261 Y0.06
X-0.2321 Y0.0597
X-0.238 Y0.0587
X-0.2438 Y0.0572
X-0.2494 Y0.0551
X-0.2547 Y0.0524
X-0.2598 Y0.0492
X-0.2645 Y0.0454
X-0.2689 Y0.0413
X-0.2727 Y0.0367
X-0.275 Y0.0334
X-0.2765 Y0.0309
X-0.2776 Y0.0281
X-0.2781 Y0.0252
X-0.2804 Y0.0047
X-0.2808 Y0
X-0.2798 Y-0.0093
X-0.2791 Y-0.0166
X-0.2781 Y-0.0225
X-0.2765 Y-0.0282
X-0.274 Y-0.0337
X-0.271 Y-0.0389
X-0.2673 Y-0.0436
X-0.2631 Y-0.048
X-0.2585 Y-0.0518
X-0.2536 Y-0.0552
X-0.2483 Y-0.058
X-0.2427 Y-0.0603
X-0.237 Y-0.0621
X-0.2311 Y-0.0633
X-0.2252 Y-0.0639
X-0.2192
X-0.2132 Y-0.0634
X-0.2073 Y-0.0624
X-0.2015 Y-0.0608
X-0.1959 Y-0.0587
X-0.1904 Y-0.0562
X-0.1853 Y-0.0531
X-0.1804 Y-0.0496
X-0.1758 Y-0.0457
X-0.1717 Y-0.0414
X-0.1678 Y-0.0368
X-0.1669 Y-0.0355
X-0.1652 Y-0.0324
X-0.1642 Y-0.029
X-0.1638 Y-0.0255
G3 X-0.1695 Y-0.0195 I-0.0062 J-0.0002
G1 X-0.2723 Y-0.0099
G3 X-0.2791 Y-0.0166 I-0.0006 J-0.0062
G1 X-0.2763 Y-0.042
X-0.2753 Y-0.0479
X-0.273 Y-0.0534
X-0.2696 Y-0.0584
X-0.2656 Y-0.0629
X-0.2611 Y-0.0668
X-0.2562 Y-0.0702
X-0.2509 Y-0.0731
X-0.2454 Y-0.0755
X-0.2397 Y-0.0774
X-0.2339 Y-0.0787
X-0.2279 Y-0.0796
X-0.2219 Y-0.08
X-0.2159 Y-0.0799
X-0.21 Y-0.0793
X-0.204 Y-0.0783
X-0.1982 Y-0.0769
X-0.1925 Y-0.075
X-0.187 Y-0.0728
X-0.1816 Y-0.0701
X-0.1764 Y-0.067
X-0.1715 Y-0.0636
X-0.1704 Y-0.0627
X-0.1669 Y-0.0589
X-0.1646 Y-0.0541
X-0.1638 Y-0.0489
G3 X-0.1696 Y-0.043 I-0.0062 J-0.0002
G1 X-0.2696 Y-0.0353
G3 X-0.2763 Y-0.042 I-0.0005 J-0.0062
G1 X-0.2748 Y-0.056
X-0.2742 Y-0.0606
X-0.2715 Y-0.0675
X-0.269 Y-0.073
X-0.2654 Y-0.0778
X-0.2611 Y-0.082
X-0.2563 Y-0.0855
X-0.2511 Y-0.0886
X-0.2456 Y-0.091
X-0.24 Y-0.093
X-0.2342 Y-0.0945
X-0.2282 Y-0.0955
X-0.2223 Y-0.0961
X-0.2163 Y-0.0962
X-0.2102 Y-0.0959
X-0.204 Y-0.0952
X-0.1979 Y-0.094
X-0.1919 Y-0.0925
X-0.1858 Y-0.0905
X-0.1801 Y-0.0881
X-0.1747 Y-0.0855
X-0.1724 Y-0.0841
X-0.1678 Y-0.0802
X-0.1649 Y-0.0749
X-0.1638 Y-0.069
G3 X-0.1695 Y-0.063 I-0.0062 J-0.0002
G1 X-0.2674 Y-0.0539
G3 X-0.2742 Y-0.0606 I-0.0006 J-0.0062
G1 X-0.2707 Y-0.0711
X-0.2663 Y-0.084
X-0.2641 Y-0.0896
X-0.2608 Y-0.0946
X-0.2566 Y-0.0988
X-0.2518 Y-0.1024
X-0.2466 Y-0.1054
X-0.2411 Y-0.1078
X-0.2354 Y-0.1096
X-0.2295 Y-0.111
X-0.2236 Y-0.1119
X-0.2176 Y-0.1124
X-0.2164
X-0.2125 Y-0.112
X-0.2088 Y-0.1108
X-0.2053 Y-0.1089
G3 X-0.2067 Y-0.0983 I-0.0038 J0.0049
G1 X-0.258 Y-0.0765
G3 X-0.2663 Y-0.084 I-0.0024 J-0.0057
G1 X-0.26 Y-0.1026
X-0.2578 Y-0.1082
X-0.2542 Y-0.113
X-0.2497 Y-0.1169
X-0.2447 Y-0.1202
X-0.2393 Y-0.1229
X-0.2337 Y-0.125
X-0.2332 Y-0.1251
X-0.2263 Y-0.1254
X-0.2198 Y-0.1231
X-0.2147 Y-0.1184
G3 X-0.2175 Y-0.1092 I-0.0051 J0.0035
G1 X-0.2517 Y-0.0951
G3 X-0.26 Y-0.1026 I-0.0024 J-0.0057
G1 X-0.2553 Y-0.1166
X-0.2549 Y-0.1178
X-0.2543 Y-0.119
X-0.2514 Y-0.1237
X-0.2481 Y-0.1287
X-0.2436 Y-0.1327
X-0.2433 Y-0.1328
X-0.2366 Y-0.1349
X-0.2297 Y-0.1343
X-0.2235 Y-0.131
X-0.2191 Y-0.1256
G3 X-0.2241 Y-0.1168 I-0.0056 J0.0027
G1 X-0.2453 Y-0.1145
G3 X-0.2514 Y-0.1237 I-0.0006 J-0.0062
G1 X-0.2435 Y-0.1369
X-0.2418 Y-0.1394
X-0.236 Y-0.1416
X-0.2299 Y-0.1409
X-0.2248 Y-0.1376
X-0.2216 Y-0.1323
G3 X-0.2238 Y-0.1231 I-0.0097 J0.0026
X-0.2435 Y-0.1369 I-0.0091 J-0.0079
G1 X-0.2402 Y-0.1424
X-0.2385 Y-0.1449
X-0.2361 Y-0.1466
X-0.232 Y-0.1471
X-0.2282 Y-0.1459
X-0.2251 Y-0.1432
X-0.2235 Y-0.1395
G3 X-0.2246 Y-0.1334 I-0.0087 J0.0016
X-0.2402 Y-0.1424 I-0.0077 J-0.0046
G1 X-0.2369 Y-0.1478
X-0.236 Y-0.1493
X-0.2354 Y-0.15
X-0.2343 Y-0.1509
X-0.2338 Y-0.1512
X-0.2333 Y-0.1514
G3 X-0.2307 Y-0.1432 I0.0013 J0.0041
X-0.236 Y-0.1457 I-0.0013 J-0.0041
X-0.2354 Y-0.15 I0.004 J-0.0016
G1 X-0.2347 Y-0.1507
X-0.234 Y-0.1511
X-0.2333 Y-0.1514
X-0.2328 Y-0.1516
X-0.2322 Y-0.1518
X-0.2316 Y-0.1519
X-0.231
X-0.2304
X-0.2298 Y-0.1518
X-0.2293 Y-0.1517
X-0.2287 Y-0.1515
X-0.2279 Y-0.1512
X-0.2272 Y-0.1507
X-0.2265 Y-0.15
X-0.2258 Y-0.1493
X-0.2253 Y-0.1487
X-0.2249 Y-0.1481
X-0.2246 Y-0.1476
X-0.2244 Y-0.147
X-0.2243 Y-0.1464
X-0.2242 Y-0.1458
X-0.224 Y-0.1432
X-0.2236 Y-0.14
X-0.2226 Y-0.1353
X-0.2211 Y-0.1306
X-0.2193 Y-0.126
X-0.2168 Y-0.1213
X-0.2134 Y-0.1166
X-0.2118 Y-0.1148
X-0.21 Y-0.113
X-0.2053 Y-0.1089
X-0.2031 Y-0.1073
X-0.2007 Y-0.1057
X-0.196 Y-0.1032
X-0.1944 Y-0.1026
X-0.1913 Y-0.1016
X-0.1867 Y-0.1004
X-0.1843 Y-0.0999
X-0.182 Y-0.0995
X-0.1806 Y-0.0994
X-0.1788
X-0.1728 Y-0.0989
X-0.1681 Y-0.0956
X-0.1649 Y-0.0907
X-0.1638 Y-0.0851
G3 X-0.1742 Y-0.0807 I-0.0062 J-0.0002
G1 X-0.1829 Y-0.0886
G3 X-0.1788 Y-0.0994 I0.0042 J-0.0046
G1 X-0.1703 Y-0.0991
X-0.1698
X-0.1692 Y-0.099
X-0.1686 Y-0.0988
X-0.168 Y-0.0986
X-0.1675 Y-0.0983
X-0.167 Y-0.098
X-0.1656 Y-0.0968
X-0.1651 Y-0.0962
X-0.1647 Y-0.0956
X-0.1644 Y-0.0951
X-0.1642 Y-0.0945
X-0.164 Y-0.0939
X-0.1639 Y-0.0933
X-0.1638 Y-0.0886
Y0.0233
X-0.1641 Y0.0293
X-0.1653 Y0.0352
X-0.1673 Y0.0409
X-0.1701 Y0.0462
X-0.1735 Y0.0512
X-0.1773 Y0.0557
X-0.1817 Y0.0599
X-0.1864 Y0.0636
X-0.1915 Y0.0668
X-0.1968 Y0.0696
X-0.2023 Y0.0719
X-0.2081 Y0.0736
X-0.2139 Y0.0749
X-0.2199 Y0.0757
X-0.2259 Y0.076
X-0.2319 Y0.0758
X-0.2378 Y0.0751
X-0.2437 Y0.0739
X-0.2495 Y0.0723
X-0.2551 Y0.0702
X-0.2605 Y0.0676
X-0.2657 Y0.0646
X-0.2678 Y0.0633
X-0.2715 Y0.0598
X-0.2741 Y0.0555
X-0.2754 Y0.0506
X-0.2781 Y0.0252
G3 X-0.272 Y0.0186 I0.0062 J-0.0005
G1 X-0.1701 Y0.0174
G3 X-0.1638 Y0.0233 I0.0001 J0.0062
G1 Y0.0467
X-0.1641 Y0.0527
X-0.1658 Y0.0584
X-0.1685 Y0.0638
X-0.172 Y0.0687
X-0.176 Y0.0731
X-0.1805 Y0.0771
X-0.1854 Y0.0806
X-0.1906 Y0.0836
X-0.196 Y0.0862
X-0.2016 Y0.0883
X-0.2074 Y0.09
X-0.2133 Y0.0912
X-0.2192 Y0.092
X-0.2252 Y0.0924
X-0.2312
X-0.2372 Y0.0919
X-0.2431 Y0.091
X-0.249 Y0.0898
X-0.2548 Y0.0881
X-0.2584 Y0.0868
X-0.263 Y0.0842
X-0.2667 Y0.0805
X-0.2691 Y0.0758
G3 X-0.2649 Y0.0681 I0.0059 J-0.0018
G1 X-0.1718 Y0.0409
G3 X-0.1638 Y0.0467 I0.0017 J0.006
G1 Y0.0653
X-0.1641 Y0.0713
X-0.166 Y0.0771
X-0.1689 Y0.0823
X-0.1726 Y0.087
X-0.1768 Y0.0913
X-0.1815 Y0.095
X-0.1865 Y0.0983
X-0.1918 Y0.1011
X-0.1963 Y0.103
X-0.1975 Y0.1034
G3 X-0.2037 Y0.0932 I-0.0016 J-0.006
G1 X-0.1746 Y0.0614
G3 X-0.1638 Y0.0653 I0.0046 J0.0042
G1 Y0.0831
Y0.084
Y0.0854
X-0.1641 Y0.0914
X-0.1677 Y0.0963
X-0.1729 Y0.0996
X-0.1789 Y0.1008
G3 X-0.1832 Y0.0903 I0.0001 J-0.0062
G1 X-0.1745 Y0.0813
G3 X-0.1638 Y0.0854 I0.0045 J0.0043
G1 Y0.0933
X-0.1639 Y0.0945
X-0.164 Y0.0951
X-0.1641 Y0.0957
X-0.1643 Y0.0963
X-0.1646 Y0.0968
X-0.1649 Y0.0974
X-0.1654 Y0.098
X-0.166 Y0.0987
X-0.1667 Y0.0994
X-0.1673 Y0.0998
X-0.168 Y0.1002
X-0.1686 Y0.1004
X-0.1692 Y0.1006
X-0.1698 Y0.1007
X-0.1703
X-0.182 Y0.1009
X-0.1867 Y0.101
X-0.1913 Y0.1018
X-0.1951 Y0.1027
X-0.2007 Y0.1044
X-0.2064 Y0.1062
X-0.2123 Y0.1075
X-0.2183 Y0.1084
X-0.2245 Y0.109
X-0.231 Y0.1091
X-0.2376 Y0.1088
X-0.2436 Y0.1081
X-0.2495 Y0.107
X-0.2504 Y0.1067
X-0.2557 Y0.1043
X-0.2598 Y0.1004
X-0.2625 Y0.0953
G3 X-0.256 Y0.0874 I0.0059 J-0.0018
G1 X-0.2029 Y0.0927
G3 X-0.2007 Y0.1044 I-0.0006 J0.0062
G1 X-0.2053 Y0.1066
X-0.2068 Y0.1073
X-0.21 Y0.1095
X-0.2131 Y0.112
X-0.214 Y0.1128
X-0.2186 Y0.1167
X-0.2239 Y0.1194
X-0.2296 Y0.1213
X-0.2355 Y0.1223
X-0.2415 Y0.1226
X-0.2422 Y0.1225
X-0.2487 Y0.1207
X-0.254 Y0.1165
X-0.2574 Y0.1106
G3 X-0.2515 Y0.1026 I0.0059 J-0.0018
G1 X-0.2184 Y0.1022
G3 X-0.214 Y0.1128 I0.0001 J0.0062
G1 X-0.2147 Y0.1135
X-0.2193 Y0.1186
X-0.2216 Y0.1213
X-0.2224 Y0.1225
X-0.2258 Y0.1274
X-0.2263 Y0.1278
X-0.2315 Y0.1305
X-0.2373 Y0.1313
X-0.2431 Y0.1302
X-0.2482 Y0.1272
X-0.252 Y0.1227
G3 X-0.2467 Y0.1135 I0.0054 J-0.003
G1 X-0.2278 Y0.1132
G3 X-0.2224 Y0.1225 I0.0001 J0.0062
G1 X-0.224 Y0.1251
X-0.2245 Y0.126
X-0.2265 Y0.1307
X-0.2276 Y0.1334
X-0.2322 Y0.1365
X-0.2377 Y0.1373
X-0.2429 Y0.1355
X-0.2467 Y0.1315
G3 X-0.2469 Y0.1226 I0.0084 J-0.0047
X-0.2265 Y0.1307 I0.0099 J0.0049
G1 X-0.228 Y0.1353
X-0.2284 Y0.1367
X-0.2287 Y0.1377
X-0.229 Y0.139
X-0.2294 Y0.1402
X-0.2299 Y0.1412
X-0.2304 Y0.1421
X-0.2314 Y0.1415
X-0.2312 Y0.1402
X-0.2309 Y0.1371
G2 X-0.2354 Y0.1366 I-0.0023 J-0.0002
X-0.2312 Y0.1381 I0.0023 J0.0002
G3 X-0.229 Y0.139 I0.001 J0.0007
G1 X-0.2292 Y0.14
X-0.2295 Y0.1405
X-0.2297 Y0.1411
X-0.2304 Y0.1421
X-0.2308 Y0.1425
X-0.2312 Y0.1429
X-0.2319 Y0.1435
X-0.2326 Y0.1439
X-0.2333 Y0.1442
X-0.2339 Y0.1444
X-0.2345 Y0.1445
X-0.2351 Y0.1446
X-0.2357
X-0.2363 Y0.1445
X-0.2368 Y0.1444
X-0.2374 Y0.1442
X-0.238 Y0.144
X-0.2386 Y0.1437
X-0.2392 Y0.1433
X-0.2399 Y0.1426
X-0.2404 Y0.142
X-0.2543 Y0.119
X-0.2549 Y0.1178
X-0.2553 Y0.1167
X-0.2726 Y0.0653
X-0.2742 Y0.0607
X-0.2748 Y0.056
X-0.2754 Y0.0506
Y0.0501
X-0.2752 Y0.0491 Z-0.0195
X-0.2751 Y0.0484 Z-0.0186
Y0.0482 Z-0.0176
G0 Z0.0787
X-0.7737 Y-0.8172
Z-0.0076
G1 Z-0.0138 F20
Y-0.8169 Z-0.0157
Y-0.816 Z-0.0174
X-0.7738 Y-0.8146 Z-0.0188
Y-0.8129 Z-0.0197
X-0.7739 Y-0.811 Z-0.02
G2 Y-0.8085 I0.0349 J0.0012
G1 Y-0.8025
X-0.7812 Y-0.7833
X-0.7838 Y-0.7629
X-0.7846 Y-0.7424
X-0.7848 Y-0.7218
X-0.7849 Y-0.7013
Y-0.5163
X-0.7848 Y0.7475
X-0.7839 Y0.7525
X-0.7817 Y0.7572
X-0.7757 Y0.7655
X-0.7675 Y0.7717
X-0.7489 Y0.7805
X-0.7287 Y0.7838
X-0.7081 Y0.7848
X-0.6876 Y0.7851
X-0.667 Y0.7852
X-0.5643
X-0.3793 Y0.7851
X0.7458 Y0.7848
X0.7509 Y0.7845
X0.7558 Y0.7828
X0.7644 Y0.7772
X0.7709 Y0.7693
X0.7802 Y0.7509
X0.7836 Y0.7307
X0.7847 Y0.7102
X0.785 Y0.6896
X0.7851 Y0.6691
Y0.5869
X0.7848 Y-0.0502
X0.7844 Y-0.7489
X0.7832 Y-0.7539
X0.7784 Y-0.763
X0.7708 Y-0.7699
X0.7529 Y-0.7799
X0.7327 Y-0.7836
X0.7121 Y-0.7848
X0.6916 Y-0.7852
X0.671 Y-0.7853
X0.6094
X-0.4798 Y-0.7848
X-0.7264 Y-0.7847
X-0.7314 Y-0.7835
X-0.7406 Y-0.7791
X-0.7479 Y-0.7718
X-0.7586 Y-0.7543
X-0.7628 Y-0.7342
X-0.7642 Y-0.7137
X-0.7647 Y-0.6931
X-0.7648 Y-0.6726
X-0.7649 Y-0.6315
X-0.7648 Y0.7248
X-0.7612 Y0.7345
X-0.7552 Y0.7428
X-0.7473 Y0.7493
X-0.7291 Y0.759
X-0.709 Y0.763
X-0.6885 Y0.7645
X-0.668 Y0.765
X-0.6474 Y0.7651
X-0.6063 Y0.7652
X-0.5652
X0.7192 Y0.7648
X0.7293 Y0.7632
X0.7385 Y0.7587
X0.746 Y0.7517
X0.7575 Y0.7346
X0.7624 Y0.7146
X0.7643 Y0.6942
X0.7649 Y0.6736
X0.765 Y0.6531
X0.7651 Y0.6325
X0.765 Y0.4476
X0.7649 Y0.0982
X0.7645 Y-0.7238
X0.7615 Y-0.7336
X0.7558 Y-0.7421
X0.748 Y-0.7489
X0.7301 Y-0.7589
X0.71 Y-0.7631
X0.6895 Y-0.7646
X0.6689 Y-0.7651
X0.6484 Y-0.7652
X0.6073 Y-0.7653
X-0.3791 Y-0.7649
X-0.6976 Y-0.7648
X-0.7078 Y-0.7634
X-0.7172 Y-0.7591
X-0.7249 Y-0.7523
X-0.7308 Y-0.7439
X-0.7396 Y-0.7253
X-0.7431 Y-0.7051
X-0.7443 Y-0.6846
X-0.7447 Y-0.664
X-0.7448 Y-0.6435
X-0.7449 Y-0.6024
X-0.7448 Y0.6923
X-0.7444 Y0.7025
X-0.741 Y0.7122
X-0.7353 Y0.7208
X-0.7277 Y0.7276
X-0.7099 Y0.738
X-0.6899 Y0.7426
X-0.6694 Y0.7443
X-0.6489 Y0.7449
X-0.6283 Y0.7451
X-0.6078
X-0.5872 Y0.7452
X0.6972 Y0.7448
X0.7073 Y0.743
X0.7166 Y0.7387
X0.7244 Y0.732
X0.7304 Y0.7237
X0.7394 Y0.7052
X0.7431 Y0.685
X0.7445 Y0.6645
X0.7449 Y0.6439
X0.745 Y0.6234
X0.7451 Y0.5823
X0.7448 Y0.0685
X0.7445 Y-0.6918
X0.7443 Y-0.7021
X0.7411 Y-0.7119
X0.7355 Y-0.7205
X0.728 Y-0.7275
X0.7104 Y-0.738
X0.6903 Y-0.7426
X0.6699 Y-0.7444
X0.6493 Y-0.745
X0.6288 Y-0.7452
X0.6082 Y-0.7453
X0.4849 Y-0.7452
X-0.4398 Y-0.7449
X-0.6761 Y-0.7448
X-0.6863 Y-0.7432
X-0.6955 Y-0.7387
X-0.7034 Y-0.732
X-0.7096 Y-0.7238
X-0.7188 Y-0.7055
X-0.7227 Y-0.6853
X-0.7241 Y-0.6648
X-0.7246 Y-0.6442
X-0.7248 Y-0.6237
X-0.7249 Y-0.5826
X-0.7248 Y0.671
X-0.7243 Y0.6812
X-0.721 Y0.691
X-0.7154 Y0.6996
X-0.7079 Y0.7067
X-0.6905 Y0.7174
X-0.6705 Y0.7223
X-0.65 Y0.7241
X-0.6295 Y0.7248
X-0.6089 Y0.7251
X-0.5884
X-0.5062
X-0.4445
X0.6754 Y0.7248
X0.6856 Y0.7232
X0.6949 Y0.7188
X0.7028 Y0.7123
X0.7092 Y0.7042
X0.7187 Y0.686
X0.7227 Y0.6658
X0.7243 Y0.6453
X0.7248 Y0.6248
X0.725 Y0.6042
X0.7251 Y0.5837
X0.725 Y0.4399
X0.7248 Y-0.115
X0.7245 Y-0.6698
X0.7242 Y-0.6801
X0.7213 Y-0.69
X0.7161 Y-0.6988
X0.7088 Y-0.706
X0.6915 Y-0.7172
X0.6716 Y-0.7222
X0.6512 Y-0.7242
X0.6306 Y-0.7249
X0.6101 Y-0.7252
X0.5895
X0.5073 Y-0.7253
X-0.6538 Y-0.7248
X-0.6639 Y-0.7234
X-0.6733 Y-0.7193
X-0.6815 Y-0.713
X-0.688 Y-0.7051
X-0.6979 Y-0.6871
X-0.7023 Y-0.667
X-0.704 Y-0.6465
X-0.7046 Y-0.626
X-0.7048 Y-0.6054
X-0.7049 Y-0.5849
Y-0.4821
X-0.7048 Y-0.0789
X-0.7055 Y-0.0741
X-0.7074 Y-0.0697
X-0.7105 Y-0.0659
X-0.7107 Y-0.0657
X-0.711 Y-0.0653
X-0.7146 Y-0.0601
X-0.715 Y-0.0595
X-0.7188 Y-0.0461
Y-0.0457
X-0.718 Y-0.0326
X-0.7173 Y-0.028
X-0.7151 Y-0.0163
Y-0.0157
Y-0.0152
Y-0.0146
X-0.7153 Y-0.014
X-0.72 Y0.0006
X-0.7201 Y0.0012
X-0.7196 Y0.014
X-0.7186 Y0.016
X-0.7153 Y0.0233
X-0.7131 Y0.0289
X-0.7112 Y0.0346
X-0.7095 Y0.0421
X-0.7076 Y0.0531
X-0.7057 Y0.0723
X-0.7051 Y0.0928
X-0.7049 Y0.1134
X-0.7048 Y0.1545
Y0.6477
X-0.7045 Y0.6579
X-0.702 Y0.6679
X-0.6972 Y0.677
X-0.6902 Y0.6845
X-0.6733 Y0.6963
X-0.6535 Y0.7017
X-0.6331 Y0.7039
X-0.6125 Y0.7047
X-0.592 Y0.705
X-0.5714 Y0.7051
X-0.5098
X-0.0788 Y0.705
X-0.074 Y0.7057
X-0.0696 Y0.7076
X-0.0658 Y0.7107
X-0.0653 Y0.711
X-0.0601 Y0.7146
X-0.0595 Y0.715
X-0.0462 Y0.7188
X-0.0457
X-0.0327 Y0.718
X-0.028 Y0.7173
X-0.0163 Y0.7151
X-0.0158
X-0.0152
X-0.0146
X-0.014 Y0.7153
X0.0006 Y0.72
X0.0012 Y0.7201
X0.014 Y0.7196
X0.016 Y0.7186
X0.0233 Y0.7153
X0.0289 Y0.7131
X0.0346 Y0.7113
X0.0422 Y0.7095
X0.0535 Y0.7077
X0.0737 Y0.7057
X0.0943 Y0.7052
X0.1148 Y0.705
X0.1559 Y0.7049
X0.6491 Y0.7048
X0.6594 Y0.7044
X0.6692 Y0.7014
X0.678 Y0.6961
X0.6853 Y0.6888
X0.6967 Y0.6717
X0.7019 Y0.6519
X0.704 Y0.6314
X0.7047 Y0.6109
X0.705 Y0.5903
Y0.5698
X0.7051 Y0.5081
X0.7049 Y0.0789
X0.7055 Y0.0741
X0.7075 Y0.0697
X0.7105 Y0.0659
X0.7107 Y0.0658
X0.711 Y0.0653
X0.7146 Y0.0601
X0.7149 Y0.0595
X0.7187 Y0.0462
X0.7188 Y0.0457
X0.718 Y0.0327
X0.7172 Y0.028
X0.7151 Y0.0163
X0.715 Y0.0158
X0.7151 Y0.0152
Y0.0146
X0.7152 Y0.014
X0.72 Y-0.0006
X0.7201 Y-0.0012
X0.7195 Y-0.014
X0.7186 Y-0.016
X0.7153 Y-0.0233
X0.713 Y-0.0289
X0.7112 Y-0.0346
X0.7094 Y-0.042
X0.7076 Y-0.053
X0.7057 Y-0.0722
X0.705 Y-0.0928
X0.7048 Y-0.1133
X0.7047 Y-0.1544
X0.7045 Y-0.6476
X0.7043 Y-0.6579
X0.7019 Y-0.6679
X0.6971 Y-0.677
X0.6902 Y-0.6845
X0.6734 Y-0.6963
X0.6536 Y-0.7018
X0.6331 Y-0.704
X0.6126 Y-0.7049
X0.592 Y-0.7051
X0.5715 Y-0.7052
X0.5098 Y-0.7053
X0.0786 Y-0.7051
X0.0739 Y-0.7057
X0.0695 Y-0.7077
X0.0658 Y-0.7107
X0.0653 Y-0.711
X0.0601 Y-0.7146
X0.0595 Y-0.7149
X0.0461 Y-0.7187
X0.0457 Y-0.7188
X0.0327 Y-0.718
X0.028 Y-0.7172
X0.0163 Y-0.7151
X0.0157 Y-0.715
X0.0152
X0.0146 Y-0.7151
X0.014 Y-0.7152
X-0.0006 Y-0.72
X-0.0012 Y-0.7201
X-0.014 Y-0.7195
X-0.016 Y-0.7186
X-0.0233 Y-0.7153
X-0.0289 Y-0.713
X-0.0347 Y-0.7113
X-0.0424 Y-0.7095
X-0.0539 Y-0.7076
X-0.0743 Y-0.7057
X-0.0949 Y-0.7052
X-0.1154 Y-0.7051
X-0.1565 Y-0.705
X-0.6292 Y-0.7048
X-0.6394 Y-0.7043
X-0.6492 Y-0.7011
X-0.658 Y-0.6958
X-0.6652 Y-0.6885
X-0.6765 Y-0.6713
X-0.6817 Y-0.6514
X-0.6837 Y-0.631
X-0.6845 Y-0.6104
X-0.6847 Y-0.5899
X-0.6848 Y-0.5693
X-0.6849 Y-0.5077
X-0.6848 Y-0.0967
X-0.6849 Y-0.0947
X-0.6859 Y-0.0896
X-0.6883 Y-0.0851
X-0.6919 Y-0.0815
X-0.6953 Y-0.0789
X-0.7008 Y-0.0746
X-0.7046 Y-0.0714
X-0.7105 Y-0.0659
X-0.7107 Y-0.0657
X-0.711 Y-0.0653
X-0.7119 Y-0.064
X-0.7146 Y-0.0601
X-0.715 Y-0.0595
X-0.7188 Y-0.0461
Y-0.0457
X-0.718 Y-0.0326
X-0.7173 Y-0.028
X-0.7155 Y-0.0187
X-0.7151 Y-0.0163
Y-0.0157
Y-0.0152
Y-0.0146
X-0.7153 Y-0.014
X-0.72 Y0.0006
X-0.7201 Y0.0012
X-0.7196 Y0.014
X-0.7193 Y0.0145
X-0.7163 Y0.0211
X-0.7153 Y0.0233
X-0.7133 Y0.0276
X-0.7131 Y0.028
X-0.7093 Y0.0319
X-0.7064 Y0.0345
X-0.7021 Y0.0387
X-0.6986 Y0.0436
X-0.6958 Y0.0489
X-0.6935 Y0.0545
X-0.6916 Y0.0608
X-0.6896 Y0.0692
X-0.6877 Y0.0811
X-0.6857 Y0.1016
X-0.6851 Y0.1221
X-0.6849 Y0.1427
X-0.6848 Y0.1632
Y0.4303
Y0.6358
X-0.6827 Y0.6459
X-0.6783 Y0.6552
X-0.6717 Y0.6631
X-0.6635 Y0.6693
X-0.6452 Y0.6787
X-0.6251 Y0.6827
X-0.6046 Y0.6843
X-0.5841 Y0.6849
X-0.5635 Y0.6851
X-0.543
X-0.4402
X-0.0947 Y0.685
X-0.0943
X-0.0894 Y0.6861
X-0.085 Y0.6885
X-0.0814 Y0.692
X-0.0789 Y0.6953
X-0.0747 Y0.7008
X-0.0714 Y0.7046
X-0.0658 Y0.7107
X-0.0653 Y0.711
X-0.0638 Y0.7121
X-0.0601 Y0.7146
X-0.0595 Y0.715
X-0.0462 Y0.7188
X-0.0457
X-0.0327 Y0.718
X-0.028 Y0.7173
X-0.0187 Y0.7155
X-0.0163 Y0.7151
X-0.0158
X-0.0152
X-0.0146
X-0.014 Y0.7153
X0.0006 Y0.72
X0.0012 Y0.7201
X0.014 Y0.7196
X0.0145 Y0.7193
X0.0211 Y0.7163
X0.0233 Y0.7153
X0.0275 Y0.7134
X0.028 Y0.7131
X0.0319 Y0.7093
X0.0345 Y0.7064
X0.0387 Y0.7021
X0.0436 Y0.6986
X0.0489 Y0.6958
X0.0545 Y0.6936
X0.0607 Y0.6917
X0.0692 Y0.6897
X0.0811 Y0.6878
X0.1016 Y0.6858
X0.1221 Y0.6852
X0.1426 Y0.685
X0.1837 Y0.6849
X0.6358 Y0.6848
X0.6459 Y0.6827
X0.6551 Y0.6782
X0.663 Y0.6715
X0.6692 Y0.6633
X0.6786 Y0.6451
X0.6827 Y0.6249
X0.6842 Y0.6044
X0.6848 Y0.5839
X0.685 Y0.5633
Y0.5428
Y0.44
X0.6849 Y0.0949
Y0.0944
X0.6859 Y0.0895
X0.6883 Y0.0851
X0.6919 Y0.0815
X0.6953 Y0.0789
X0.7008 Y0.0747
X0.7046 Y0.0714
X0.7105 Y0.0659
X0.7107 Y0.0658
X0.711 Y0.0653
X0.7119 Y0.064
X0.7146 Y0.0601
X0.7149 Y0.0595
X0.7187 Y0.0462
X0.7188 Y0.0457
X0.718 Y0.0327
X0.7172 Y0.028
X0.7155 Y0.0187
X0.7151 Y0.0163
X0.715 Y0.0158
X0.7151 Y0.0152
Y0.0146
X0.7152 Y0.014
X0.72 Y-0.0006
X0.7201 Y-0.0012
X0.7195 Y-0.014
X0.7193 Y-0.0145
X0.7163 Y-0.0211
X0.7153 Y-0.0233
X0.7133 Y-0.0275
X0.713 Y-0.028
X0.7093 Y-0.0319
X0.7063 Y-0.0345
X0.7021 Y-0.0387
X0.6985 Y-0.0436
X0.6958 Y-0.0489
X0.6935 Y-0.0544
X0.6916 Y-0.0607
X0.6896 Y-0.0692
X0.6876 Y-0.0811
X0.6856 Y-0.1015
X0.685 Y-0.122
X0.6848 Y-0.1426
Y-0.1631
X0.6846 Y-0.4303
X0.6845 Y-0.6358
X0.6825 Y-0.6459
X0.6782 Y-0.6552
X0.6716 Y-0.6631
X0.6634 Y-0.6693
X0.6452 Y-0.6788
X0.6251 Y-0.6829
X0.6046 Y-0.6844
X0.584 Y-0.685
X0.5635 Y-0.6852
X0.5429
X0.4402
X0.0946 Y-0.6851
X0.0942
X0.0893 Y-0.6862
X0.0849 Y-0.6885
X0.0813 Y-0.6921
X0.0789 Y-0.6953
X0.0746 Y-0.7007
X0.0714 Y-0.7046
X0.0658 Y-0.7107
X0.0653 Y-0.711
X0.0637 Y-0.7121
X0.0601 Y-0.7146
X0.0595 Y-0.7149
X0.0461 Y-0.7187
X0.0457 Y-0.7188
X0.0327 Y-0.718
X0.028 Y-0.7172
X0.0187 Y-0.7155
X0.0163 Y-0.7151
X0.0157 Y-0.715
X0.0152
X0.0146 Y-0.7151
X0.014 Y-0.7152
X-0.0006 Y-0.72
X-0.0012 Y-0.7201
X-0.014 Y-0.7195
X-0.0145 Y-0.7193
X-0.0211 Y-0.7163
X-0.0233 Y-0.7153
X-0.0276 Y-0.7133
X-0.028 Y-0.713
X-0.0319 Y-0.7093
X-0.0345 Y-0.7063
X-0.0387 Y-0.7021
X-0.0436 Y-0.6986
X-0.049 Y-0.6958
X-0.0545 Y-0.6936
X-0.0607 Y-0.6917
X-0.0693 Y-0.6897
X-0.0812 Y-0.6878
X-0.1017 Y-0.6858
X-0.1222 Y-0.6853
X-0.1428 Y-0.6851
X-0.1839 Y-0.685
X-0.6154 Y-0.6848
X-0.6255 Y-0.6827
X-0.6347 Y-0.6782
X-0.6425 Y-0.6716
X-0.6488 Y-0.6634
X-0.6583 Y-0.6452
X-0.6624 Y-0.625
X-0.664 Y-0.6045
X-0.6646 Y-0.584
X-0.6648 Y-0.5635
Y-0.5429
X-0.6649 Y-0.4402
X-0.6648 Y-0.1216
X-0.6649 Y-0.1111
X-0.6653 Y-0.1051
X-0.6655 Y-0.1043
X-0.6672 Y-0.0988
X-0.6707 Y-0.0942
X-0.6754 Y-0.0909
X-0.6813 Y-0.0881
X-0.6885 Y-0.084
X-0.6906 Y-0.0824
X-0.6919 Y-0.0815
G3 X-0.6941 Y-0.0805 I-0.0036 J-0.0051
G1 X-0.696 Y-0.0801 Z-0.0197
X-0.6977 Y-0.0797 Z-0.0188
X-0.699 Y-0.0794 Z-0.0174
X-0.6999 Y-0.0792 Z-0.0157
X-0.7002 Y-0.0791 Z-0.0138
G0 Z0.0787
X-0.7051 Y0.0415
Z-0.0076
G1 Z-0.0138 F20
X-0.7053 Y0.0412 Z-0.0157
X-0.7057 Y0.0405 Z-0.0174
X-0.7064 Y0.0393 Z-0.0188
X-0.7073 Y0.0378 Z-0.0197
X-0.7082 Y0.0361 Z-0.02
G3 X-0.7064 Y0.0345 I0.0011 J-0.0006
G1 X-0.6979 Y0.042
X-0.6953 Y0.044
X-0.6915 Y0.0467
X-0.6867 Y0.0503
X-0.6826 Y0.0547
X-0.6794 Y0.0598
X-0.6767 Y0.0651
X-0.6744 Y0.071
X-0.6722 Y0.078
X-0.6701 Y0.0864
X-0.668 Y0.0987
X-0.6659 Y0.1185
X-0.6652 Y0.139
X-0.6649 Y0.1596
Y0.1801
X-0.6648 Y0.2623
Y0.6117
X-0.6638 Y0.6219
X-0.6601 Y0.6315
X-0.6543 Y0.64
X-0.6466 Y0.6468
X-0.629 Y0.6574
X-0.609 Y0.6622
X-0.5886 Y0.6641
X-0.568 Y0.6648
X-0.5475 Y0.665
X-0.5269 Y0.6651
X-0.4447
X-0.1159 Y0.665
X-0.1079 Y0.6653
X-0.105 Y0.6656
X-0.0992 Y0.6672
X-0.0943 Y0.6707
X-0.0908 Y0.6757
X-0.0882 Y0.6813
X-0.084 Y0.6885
X-0.0825 Y0.6906
X-0.0814 Y0.692
G3 X-0.0804 Y0.6942 I-0.0051 J0.0036
G1 X-0.08 Y0.6961 Z-0.0197
X-0.0796 Y0.6978 Z-0.0188
X-0.0793 Y0.6991 Z-0.0174
X-0.0792 Y0.7 Z-0.0157
X-0.0791 Y0.7003 Z-0.0138
G0 Z0.0787
X0.0415 Y0.7051
Z-0.0076
G1 Z-0.0138 F20
X0.0412 Y0.7053 Z-0.0157
X0.0404 Y0.7057 Z-0.0174
X0.0392 Y0.7064 Z-0.0188
X0.0377 Y0.7073 Z-0.0197
X0.0361 Y0.7082 Z-0.02
G3 X0.0345 Y0.7064 I-0.0006 J-0.0011
G1 X0.042 Y0.6979
X0.044 Y0.6953
X0.0467 Y0.6915
X0.0503 Y0.6867
X0.0547 Y0.6827
X0.0598 Y0.6794
X0.0651 Y0.6767
X0.071 Y0.6744
X0.078 Y0.6722
X0.0865 Y0.6702
X0.099 Y0.6681
X0.1193 Y0.666
X0.1398 Y0.6653
X0.1603 Y0.6651
X0.1809 Y0.665
X0.2836 Y0.6649
X0.6124 Y0.6648
X0.6226 Y0.6636
X0.6321 Y0.6596
X0.6405 Y0.6536
X0.6472 Y0.6459
X0.6576 Y0.6281
X0.6622 Y0.6081
X0.664 Y0.5876
X0.6647 Y0.5671
X0.665 Y0.5465
Y0.526
Y0.4438
X0.6649 Y0.115
X0.6652 Y0.1074
X0.6655 Y0.105
X0.6671 Y0.0992
X0.6706 Y0.0943
X0.6755 Y0.0909
X0.6813 Y0.0882
X0.6885 Y0.084
X0.6906 Y0.0825
X0.6919 Y0.0815
G3 X0.6941 Y0.0805 I0.0036 J0.0051
G1 X0.6959 Y0.0801 Z-0.0197
X0.6976 Y0.0797 Z-0.0188
X0.699 Y0.0794 Z-0.0174
X0.6998 Y0.0793 Z-0.0157
X0.7001 Y0.0792 Z-0.0138
G0 Z0.0787
X0.7051 Y-0.0415
Z-0.0076
G1 Z-0.0138 F20
X0.7052 Y-0.0412 Z-0.0157
X0.7057 Y-0.0404 Z-0.0174
X0.7064 Y-0.0392 Z-0.0188
X0.7072 Y-0.0377 Z-0.0197
X0.7082 Y-0.0361 Z-0.02
G3 X0.7063 Y-0.0345 I-0.0011 J0.0006
G1 X0.6979 Y-0.042
X0.6953 Y-0.044
X0.6914 Y-0.0466
X0.6867 Y-0.0503
X0.6826 Y-0.0547
X0.6793 Y-0.0597
X0.6766 Y-0.0651
X0.6743 Y-0.0709
X0.6721 Y-0.0779
X0.6701 Y-0.0863
X0.6679 Y-0.0986
X0.6659 Y-0.1184
X0.6651 Y-0.1389
X0.6649 Y-0.1594
X0.6648 Y-0.18
X0.6647 Y-0.2622
X0.6645 Y-0.6115
X0.6636 Y-0.6218
X0.66 Y-0.6314
X0.6542 Y-0.6399
X0.6466 Y-0.6468
X0.629 Y-0.6575
X0.6091 Y-0.6623
X0.5886 Y-0.6642
X0.5681 Y-0.6649
X0.5475 Y-0.6651
X0.527 Y-0.6652
X0.4448
X0.116 Y-0.6651
X0.1079 Y-0.6653
X0.105 Y-0.6656
X0.0992 Y-0.6673
X0.0942 Y-0.6708
X0.0908 Y-0.6757
X0.0881 Y-0.6813
X0.084 Y-0.6885
X0.0824 Y-0.6906
X0.0813 Y-0.6921
G3 X0.0803 Y-0.6943 I0.0051 J-0.0036
G1 X0.0799 Y-0.6962 Z-0.0197
X0.0796 Y-0.6978 Z-0.0188
X0.0793 Y-0.6992 Z-0.0174
X0.0791 Y-0.7 Z-0.0157
X0.079 Y-0.7003 Z-0.0138
G0 Z0.0787
X-0.0415 Y-0.7051
Z-0.0076
G1 Z-0.0138 F20
X-0.0412 Y-0.7052 Z-0.0157
X-0.0405 Y-0.7057 Z-0.0174
X-0.0393 Y-0.7064 Z-0.0188
X-0.0378 Y-0.7072 Z-0.0197
X-0.0361 Y-0.7082 Z-0.02
G3 X-0.0345 Y-0.7063 I0.0006 J0.0011
G1 X-0.042 Y-0.6979
X-0.044 Y-0.6953
X-0.0467 Y-0.6914
X-0.0503 Y-0.6867
X-0.0548 Y-0.6826
X-0.0598 Y-0.6794
X-0.0652 Y-0.6767
X-0.0711 Y-0.6744
X-0.0781 Y-0.6722
X-0.0867 Y-0.6702
X-0.0992 Y-0.6681
X-0.1197 Y-0.666
X-0.1402 Y-0.6653
X-0.1608 Y-0.6651
X-0.1813 Y-0.665
X-0.2841 Y-0.6649
X-0.5923 Y-0.6648
X-0.6025 Y-0.6635
X-0.612 Y-0.6595
X-0.6203 Y-0.6535
X-0.627 Y-0.6457
X-0.6373 Y-0.6279
X-0.642 Y-0.6079
X-0.6438 Y-0.5875
X-0.6445 Y-0.5669
X-0.6448 Y-0.5464
Y-0.5258
X-0.6449 Y-0.4436
X-0.6448 Y-0.1354
X-0.645 Y-0.1235
X-0.6455 Y-0.1165
X-0.646 Y-0.1132
X-0.6479 Y-0.1074
X-0.6516 Y-0.1026
X-0.6567 Y-0.0994
X-0.6601 Y-0.098
X-0.6673 Y-0.0947
X-0.6754 Y-0.0909
G3 X-0.6778 Y-0.0904 I-0.0024 J-0.0057
G1 X-0.6797 Z-0.0197
X-0.6814 Z-0.0188
X-0.6828 Y-0.0903 Z-0.0174
X-0.6837 Z-0.0157
X-0.684 Z-0.0138
G0 Z0.0787
X-0.6894 Y0.0534
Z-0.0076
G1 Z-0.0138 F20
X-0.6895 Y0.0532 Z-0.0157
X-0.6901 Y0.0525 Z-0.0174
X-0.6909 Y0.0514 Z-0.0188
X-0.6919 Y0.05 Z-0.0197
X-0.6931 Y0.0485 Z-0.02
G3 X-0.6915 Y0.0467 I0.001 J-0.0007
G1 X-0.6906 Y0.0472
X-0.686 Y0.0499
X-0.6813 Y0.0523
X-0.6766 Y0.0545
X-0.6713 Y0.0573
X-0.6669 Y0.0614
X-0.6632 Y0.0661
X-0.6601 Y0.0712
X-0.6575 Y0.0766
X-0.6551 Y0.0827
X-0.6525 Y0.0912
X-0.6503 Y0.1
X-0.6481 Y0.1134
X-0.646 Y0.1338
X-0.6452 Y0.1544
X-0.645 Y0.1749
X-0.6449 Y0.1955
X-0.6448 Y0.2571
Y0.5859
X-0.6446 Y0.5962
X-0.6424 Y0.6062
X-0.6377 Y0.6154
X-0.6309 Y0.6231
X-0.6227 Y0.6293
X-0.6044 Y0.6386
X-0.5843 Y0.6427
X-0.5638 Y0.6443
X-0.5433 Y0.6448
X-0.5227 Y0.645
X-0.5022 Y0.6451
X-0.3994
X-0.1323 Y0.645
X-0.1226 Y0.6452
X-0.1157 Y0.6458
X-0.1129 Y0.6463
X-0.1073 Y0.6482
X-0.1025 Y0.6519
X-0.0993 Y0.657
X-0.098 Y0.6601
X-0.0947 Y0.6673
X-0.0908 Y0.6757
G3 X-0.0903 Y0.678 I-0.0057 J0.0024
G1 Y0.6799 Z-0.0197
Y0.6817 Z-0.0188
Y0.683 Z-0.0174
Y0.6839 Z-0.0157
Y0.6842 Z-0.0138
G0 Z0.0787
X0.0534 Y0.6894
Z-0.0076
G1 Z-0.0138 F20
X0.0531 Y0.6895 Z-0.0157
X0.0524 Y0.6901 Z-0.0174
X0.0513 Y0.6909 Z-0.0188
X0.05 Y0.6919 Z-0.0197
X0.0484 Y0.6931 Z-0.02
G3 X0.0467 Y0.6915 I-0.0007 J-0.001
G1 X0.0472 Y0.6906
X0.0499 Y0.686
X0.0523 Y0.6813
X0.0545 Y0.6766
X0.0573 Y0.6713
X0.0613 Y0.6669
X0.0661 Y0.6633
X0.0712 Y0.6602
X0.0766 Y0.6576
X0.0827 Y0.6552
X0.0913 Y0.6525
X0.1002 Y0.6504
X0.1136 Y0.6481
X0.1341 Y0.6461
X0.1546 Y0.6453
X0.1752 Y0.6451
X0.1957 Y0.645
X0.2779 Y0.6449
X0.5862 Y0.6448
X0.5964 Y0.6446
X0.6064 Y0.6423
X0.6155 Y0.6375
X0.6232 Y0.6307
X0.6294 Y0.6224
X0.6386 Y0.6041
X0.6426 Y0.5839
X0.6442 Y0.5634
X0.6448 Y0.5429
X0.645 Y0.5223
Y0.5018
Y0.399
X0.6449 Y0.1319
X0.6451 Y0.1225
X0.6457 Y0.1157
X0.6461 Y0.113
X0.6481 Y0.1073
X0.6518 Y0.1026
X0.6568 Y0.0994
X0.66 Y0.098
X0.6673 Y0.0947
X0.6755 Y0.0909
G3 X0.6779 Y0.0904 I0.0024 J0.0057
G1 X0.6798 Z-0.0197
X0.6815 Y0.0903 Z-0.0188
X0.6829 Z-0.0174
X0.6838 Z-0.0157
X0.6841 Z-0.0138
G0 Z0.0787
X0.6893 Y-0.0534
Z-0.0076
G1 Z-0.0138 F20
X0.6895 Y-0.0531 Z-0.0157
X0.69 Y-0.0524 Z-0.0174
X0.6909 Y-0.0513 Z-0.0188
X0.6919 Y-0.05 Z-0.0197
X0.6931 Y-0.0484 Z-0.02
G3 X0.6914 Y-0.0466 I-0.001 J0.0007
G1 X0.6906 Y-0.0472
X0.686 Y-0.0499
X0.6813 Y-0.0523
X0.6766 Y-0.0545
X0.6713 Y-0.0573
X0.6669 Y-0.0613
X0.6632 Y-0.066
X0.6601 Y-0.0712
X0.6575 Y-0.0766
X0.6551 Y-0.0827
X0.6524 Y-0.0911
X0.6503 Y-0.0999
X0.648 Y-0.1133
X0.6459 Y-0.1338
X0.6451 Y-0.1543
X0.6449 Y-0.1748
X0.6448 Y-0.1954
X0.6447 Y-0.257
X0.6445 Y-0.5858
X0.6444 Y-0.5961
X0.6422 Y-0.6062
X0.6376 Y-0.6153
X0.6309 Y-0.6231
X0.6227 Y-0.6293
X0.6044 Y-0.6387
X0.5843 Y-0.6428
X0.5638 Y-0.6444
X0.5432 Y-0.6449
X0.5227 Y-0.6451
X0.5021 Y-0.6452
X0.3994
X0.1322 Y-0.6451
X0.1226 Y-0.6453
X0.1157 Y-0.6459
X0.1129 Y-0.6463
X0.1072 Y-0.6483
X0.1025 Y-0.652
X0.0993 Y-0.657
X0.098 Y-0.66
X0.0947 Y-0.6673
X0.0908 Y-0.6757
G3 X0.0903 Y-0.6781 I0.0057 J-0.0024
G1 X0.0902 Y-0.68 Z-0.0197
Y-0.6817 Z-0.0188
Y-0.6831 Z-0.0174
Y-0.684 Z-0.0157
Y-0.6843 Z-0.0138
G0 Z0.0787
X-0.0534 Y-0.6893
Z-0.0076
G1 Z-0.0138 F20
X-0.0532 Y-0.6895 Z-0.0157
X-0.0525 Y-0.69 Z-0.0174
X-0.0514 Y-0.6909 Z-0.0188
X-0.05 Y-0.6919 Z-0.0197
X-0.0485 Y-0.6931 Z-0.02
G3 X-0.0467 Y-0.6914 I0.0007 J0.001
G1 X-0.0472 Y-0.6906
X-0.0499 Y-0.686
X-0.0523 Y-0.6813
X-0.0541 Y-0.6776
X-0.0569 Y-0.6723
X-0.0608 Y-0.6677
X-0.0654 Y-0.6639
X-0.0705 Y-0.6607
X-0.0759 Y-0.658
X-0.0815 Y-0.6557
X-0.0894 Y-0.6531
X-0.0984 Y-0.6509
X-0.1107 Y-0.6486
X-0.1294 Y-0.6465
X-0.1499 Y-0.6455
X-0.1705 Y-0.6452
X-0.191 Y-0.645
X-0.2321
X-0.5712 Y-0.6448
X-0.5814 Y-0.6437
X-0.591 Y-0.64
X-0.5995 Y-0.6341
X-0.6064 Y-0.6265
X-0.617 Y-0.6089
X-0.6218 Y-0.589
X-0.6238 Y-0.5685
X-0.6245 Y-0.548
X-0.6247 Y-0.5274
X-0.6248 Y-0.5069
X-0.6249 Y-0.4452
X-0.6248 Y-0.1575
X-0.6249 Y-0.137
X-0.6253 Y-0.1292
X-0.6261 Y-0.1228
X-0.6267 Y-0.12
X-0.6288 Y-0.1144
X-0.6328 Y-0.1098
X-0.6381 Y-0.1068
X-0.644 Y-0.1046
X-0.6489 Y-0.1026
X-0.6567 Y-0.0994
G3 X-0.6591 Y-0.099 I-0.0022 J-0.0058
G1 X-0.661 Y-0.0991 Z-0.0197
X-0.6628 Z-0.0188
X-0.6641 Y-0.0992 Z-0.0174
X-0.665 Z-0.0157
X-0.6653 Z-0.0138
G0 Z0.0787
X-0.6735 Y0.0608
Z-0.0076
G1 Z-0.0138 F20
X-0.6737 Y0.0606 Z-0.0157
X-0.6743 Y0.06 Z-0.0174
X-0.6753 Y0.059 Z-0.0188
X-0.6766 Y0.0579 Z-0.0197
X-0.678 Y0.0565 Z-0.02
G3 X-0.6766 Y0.0545 I0.0008 J-0.0009
G1 X-0.6673 Y0.0588
X-0.6601 Y0.062
X-0.6547 Y0.0647
X-0.65 Y0.0685
X-0.6461 Y0.073
X-0.6427 Y0.0779
X-0.6398 Y0.0832
X-0.6373 Y0.0889
X-0.6349 Y0.0956
X-0.632 Y0.1053
X-0.6298 Y0.1154
X-0.6275 Y0.131
X-0.6258 Y0.1515
X-0.6252 Y0.172
X-0.6249 Y0.1926
Y0.2131
X-0.6248 Y0.2953
Y0.5625
X-0.6247 Y0.5727
X-0.6234 Y0.5829
X-0.6193 Y0.5924
X-0.6132 Y0.6006
X-0.6054 Y0.6073
X-0.5876 Y0.6176
X-0.5676 Y0.6222
X-0.5471 Y0.6241
X-0.5266 Y0.6248
X-0.5061 Y0.625
X-0.4855 Y0.6251
X-0.4033
X-0.1567 Y0.625
X-0.1362 Y0.6251
X-0.1286 Y0.6256
X-0.1224 Y0.6264
X-0.1199 Y0.6269
X-0.1143 Y0.6291
X-0.1097 Y0.633
X-0.1067 Y0.6382
X-0.1046 Y0.644
X-0.1027 Y0.6489
X-0.0993 Y0.657
G3 X-0.099 Y0.6594 I-0.0058 J0.0022
G1 Y0.6613 Z-0.0197
X-0.0991 Y0.663 Z-0.0188
Y0.6644 Z-0.0174
X-0.0992 Y0.6652 Z-0.0157
Y0.6656 Z-0.0138
G0 Z0.0787
X0.0608 Y0.6735
Z-0.0076
G1 Z-0.0138 F20
X0.0605 Y0.6737 Z-0.0157
X0.0599 Y0.6743 Z-0.0174
X0.059 Y0.6753 Z-0.0188
X0.0578 Y0.6766 Z-0.0197
X0.0565 Y0.678 Z-0.02
G3 X0.0545 Y0.6766 I-0.0009 J-0.0008
G1 X0.0588 Y0.6673
X0.062 Y0.6601
X0.0647 Y0.6547
X0.0685 Y0.6501
X0.073 Y0.6461
X0.078 Y0.6427
X0.0832 Y0.6399
X0.089 Y0.6373
X0.0957 Y0.6349
X0.1054 Y0.6321
X0.1157 Y0.6299
X0.1314 Y0.6275
X0.1519 Y0.6259
X0.1724 Y0.6253
X0.193 Y0.6251
X0.2135 Y0.625
X0.2957 Y0.6249
X0.5629 Y0.6248
X0.5731
X0.5833 Y0.6233
X0.5927 Y0.6191
X0.6009 Y0.6129
X0.6075 Y0.605
X0.6177 Y0.5872
X0.6222 Y0.5671
X0.624 Y0.5467
X0.6247 Y0.5261
X0.6249 Y0.5056
X0.625 Y0.485
Y0.4028
X0.6249 Y0.1562
Y0.1357
X0.6254 Y0.1283
X0.6263 Y0.1222
X0.6267 Y0.1199
X0.6289 Y0.1143
X0.6329 Y0.1098
X0.6381 Y0.1068
X0.644 Y0.1046
X0.6488 Y0.1027
X0.6568 Y0.0994
G3 X0.6592 Y0.099 I0.0022 J0.0058
G1 X0.6611 Y0.0991 Z-0.0197
X0.6628 Z-0.0188
X0.6642 Y0.0992 Z-0.0174
X0.6651 Z-0.0157
X0.6654 Z-0.0138
G0 Z0.0787
X0.6734 Y-0.0608
Z-0.0076
G1 Z-0.0138 F20
X0.6736 Y-0.0605 Z-0.0157
X0.6743 Y-0.0599 Z-0.0174
X0.6753 Y-0.059 Z-0.0188
X0.6766 Y-0.0578 Z-0.0197
X0.6779 Y-0.0565 Z-0.02
G3 X0.6766 Y-0.0545 I-0.0008 J0.0009
G1 X0.6673 Y-0.0588
X0.6601 Y-0.062
X0.6547 Y-0.0647
X0.65 Y-0.0685
X0.646 Y-0.0729
X0.6427 Y-0.0779
X0.6398 Y-0.0832
X0.6373 Y-0.0889
X0.6348 Y-0.0955
X0.632 Y-0.1052
X0.6297 Y-0.1153
X0.6274 Y-0.1309
X0.6257 Y-0.1514
X0.6251 Y-0.1719
X0.6249 Y-0.1925
X0.6248 Y-0.213
X0.6247 Y-0.2952
X0.6245 Y-0.5624
Y-0.5726
X0.6232 Y-0.5828
X0.6192 Y-0.5923
X0.6132 Y-0.6006
X0.6054 Y-0.6073
X0.5876 Y-0.6177
X0.5676 Y-0.6223
X0.5472 Y-0.6242
X0.5266 Y-0.6249
X0.5061 Y-0.6251
X0.4855 Y-0.6252
X0.4033
X0.1567 Y-0.6251
X0.1362 Y-0.6252
X0.1286 Y-0.6256
X0.1224 Y-0.6265
X0.1198 Y-0.627
X0.1142 Y-0.6291
X0.1097 Y-0.6331
X0.1067 Y-0.6383
X0.1046 Y-0.644
X0.1026 Y-0.6488
X0.0993 Y-0.657
G3 X0.0989 Y-0.6594 I0.0058 J-0.0022
G1 X0.099 Y-0.6613 Z-0.0197
Y-0.6631 Z-0.0188
X0.0991 Y-0.6644 Z-0.0174
Y-0.6653 Z-0.0157
Y-0.6656 Z-0.0138
G0 Z0.0787
X-0.0603 Y-0.6744
Z-0.0076
G1 Z-0.0138 F20
X-0.0601 Y-0.6746 Z-0.0157
X-0.0595 Y-0.6752 Z-0.0174
X-0.0586 Y-0.6762 Z-0.0188
X-0.0574 Y-0.6775 Z-0.0197
X-0.0561 Y-0.6789 Z-0.02
G3 X-0.0541 Y-0.6776 I0.0009 J0.0008
G1 X-0.0588 Y-0.6673
X-0.062 Y-0.6601
X-0.0647 Y-0.6547
X-0.0685 Y-0.6501
X-0.0731 Y-0.6461
X-0.078 Y-0.6428
X-0.0833 Y-0.6399
X-0.0888 Y-0.6375
X-0.0959 Y-0.6349
X-0.105 Y-0.6323
X-0.1157 Y-0.6299
X-0.1314 Y-0.6276
X-0.1519 Y-0.626
X-0.1725 Y-0.6253
X-0.193 Y-0.6251
X-0.2136 Y-0.625
X-0.2958 Y-0.6249
X-0.5424 Y-0.6248
X-0.5526 Y-0.6247
X-0.5628 Y-0.6233
X-0.5723 Y-0.6192
X-0.5805 Y-0.6131
X-0.5872 Y-0.6053
X-0.5974 Y-0.5875
X-0.602 Y-0.5674
X-0.6038 Y-0.547
X-0.6045 Y-0.5264
X-0.6047 Y-0.5059
X-0.6048 Y-0.4853
X-0.6049 Y-0.4031
Y-0.1565
X-0.6051 Y-0.1422
X-0.6057 Y-0.1352
X-0.6067 Y-0.1291
X-0.607 Y-0.1274
X-0.6091 Y-0.1222
X-0.6128 Y-0.1179
X-0.6176 Y-0.1149
X-0.6346 Y-0.108
X-0.6381 Y-0.1068
G3 X-0.6405 Y-0.1065 I-0.0019 J-0.0059
G1 X-0.6424 Y-0.1067 Z-0.0197
X-0.6441 Y-0.1068 Z-0.0188
X-0.6455 Y-0.1069 Z-0.0174
X-0.6463 Y-0.107 Z-0.0157
X-0.6466 Z-0.0138
G0 Z0.0787
X-0.6568 Y0.0683
Z-0.0076
G1 Z-0.0138 F20
X-0.657 Y0.0681 Z-0.0157
X-0.6576 Y0.0675 Z-0.0174
X-0.6587 Y0.0665 Z-0.0188
X-0.6599 Y0.0654 Z-0.0197
X-0.6614 Y0.0641 Z-0.02
G3 X-0.6601 Y0.062 I0.0008 J-0.0009
G1 X-0.658 Y0.063
X-0.6486 Y0.0669
X-0.6423 Y0.0695
X-0.6369 Y0.072
X-0.6321 Y0.0757
X-0.628 Y0.0801
X-0.6245 Y0.0849
X-0.6215 Y0.0901
X-0.6189 Y0.0955
X-0.616 Y0.1028
X-0.6136 Y0.1104
X-0.6108 Y0.1216
X-0.6085 Y0.1349
X-0.6063 Y0.1553
X-0.6054 Y0.1758
X-0.605 Y0.1964
X-0.6049 Y0.2169
X-0.6048 Y0.258
Y0.5457
X-0.6046 Y0.556
X-0.6023 Y0.566
X-0.5976 Y0.5751
X-0.5908 Y0.5829
X-0.5827 Y0.5891
X-0.5644 Y0.5985
X-0.5442 Y0.6026
X-0.5238 Y0.6042
X-0.5032 Y0.6048
X-0.4827 Y0.605
X-0.4621 Y0.6051
X-0.3799
X-0.1744 Y0.605
X-0.1539 Y0.6051
X-0.141 Y0.6054
X-0.1343 Y0.606
X-0.1284 Y0.607
X-0.1272 Y0.6073
X-0.122 Y0.6094
X-0.1178 Y0.613
X-0.1149 Y0.6178
X-0.1081 Y0.6347
X-0.1067 Y0.6382
G3 X-0.1065 Y0.6406 I-0.0059 J0.0019
G1 X-0.1066 Y0.6426 Z-0.0197
X-0.1068 Y0.6443 Z-0.0188
X-0.1069 Y0.6456 Z-0.0174
X-0.107 Y0.6465 Z-0.0157
Y0.6468 Z-0.0138
G0 Z0.0787
X0.0682 Y0.6568
Z-0.0076
G1 Z-0.0138 F20
X0.068 Y0.657 Z-0.0157
X0.0674 Y0.6576 Z-0.0174
X0.0665 Y0.6587 Z-0.0188
X0.0654 Y0.6599 Z-0.0197
X0.0641 Y0.6614 Z-0.02
G3 X0.062 Y0.6601 I-0.0009 J-0.0008
G1 X0.0629 Y0.658
X0.0668 Y0.6486
X0.0694 Y0.6423
X0.072 Y0.6369
X0.0756 Y0.6321
X0.0801 Y0.6281
X0.0849 Y0.6246
X0.0901 Y0.6216
X0.0955 Y0.619
X0.1028 Y0.6161
X0.1105 Y0.6137
X0.1217 Y0.6109
X0.1352 Y0.6086
X0.1556 Y0.6064
X0.1761 Y0.6055
X0.1967 Y0.6052
X0.2018 Y0.6051
X0.2024 Y0.6052
X0.203 Y0.6053
G3 X0.2033 Y0.6174 I-0.0012 J0.0061
G1 X0.0768 Y0.6504
G3 X0.0694 Y0.6423 I-0.0016 J-0.006
G1 X0.0746 Y0.6294
X0.0768 Y0.6239
X0.0793 Y0.6185
X0.0829 Y0.6137
X0.0873 Y0.6095
X0.0921 Y0.6059
X0.0972 Y0.6028
X0.1026 Y0.6001
X0.1094 Y0.5973
X0.1103 Y0.597
X0.113 Y0.5963
X0.1159 Y0.5961
X0.1187 Y0.5963
G3 X0.121 Y0.6075 I-0.0012 J0.0061
G1 X0.0861 Y0.6311
G3 X0.0768 Y0.6239 I-0.0035 J-0.0051
G1 X0.0845 Y0.6049
X0.0851 Y0.6033
X0.0856 Y0.602
X0.0881 Y0.5965
X0.0934 Y0.5928
X0.0996 Y0.5913
X0.106 Y0.5924
G3 X0.1063 Y0.6037 I-0.0024 J0.0057
G1 X0.0942 Y0.6096
G3 X0.0856 Y0.602 I-0.0028 J-0.0056
G1 X0.0875 Y0.5973
X0.0896 Y0.5927
X0.0899 Y0.5921
X0.0903 Y0.5914
X0.0908 Y0.5908
X0.0914 Y0.5902
X0.0919 Y0.5899
X0.0924 Y0.5896
X0.0933 Y0.5892
X0.0939 Y0.5891
X0.0945 Y0.589
X0.0956 Y0.5889
X0.0962
X0.0968 Y0.589
X0.0974 Y0.5892
X0.098 Y0.5893
X0.1073 Y0.5929
X0.112 Y0.5946
X0.1166 Y0.596
X0.1213 Y0.5967
X0.1242 Y0.597
X0.1248 Y0.5971
X0.14 Y0.596
X0.154 Y0.5946
X0.1604 Y0.5932
X0.1613 Y0.593
X0.1618 Y0.5928
X0.1622 Y0.5927
X0.1633 Y0.5922
X0.169 Y0.5902
X0.1729 Y0.5901
X0.1766 Y0.5912
X0.1798 Y0.5935
G3 X0.1753 Y0.604 I-0.0045 J0.0042
G1 X0.1659
G3 X0.1633 Y0.5922 J-0.0062
G1 X0.168 Y0.5902
X0.1703 Y0.5891
X0.1709 Y0.5889
X0.1715 Y0.5887
X0.1721
X0.1726
X0.1732
X0.1738 Y0.5888
X0.1744 Y0.5889
X0.175 Y0.5892
X0.1756 Y0.5894
X0.1761 Y0.5898
X0.1773 Y0.5908
X0.1789 Y0.5927
X0.182 Y0.5957
X0.1841 Y0.5973
X0.1896 Y0.6011
X0.1917 Y0.602
X0.196 Y0.6037
X0.1966 Y0.6039
X0.203 Y0.6053
X0.21 Y0.6055
X0.2114 Y0.6053
X0.2174 Y0.6047
X0.2379 Y0.6049
X0.2996
X0.5462 Y0.6048
X0.5564 Y0.6046
X0.5664 Y0.6021
X0.5755 Y0.5973
X0.5832 Y0.5905
X0.5893 Y0.5822
X0.5985 Y0.5639
X0.6026 Y0.5437
X0.6041 Y0.5232
X0.6047 Y0.5027
X0.6049 Y0.4821
X0.605 Y0.4616
Y0.3794
X0.6049 Y0.1739
Y0.1533
X0.6053 Y0.1408
X0.6059 Y0.1342
X0.6069 Y0.1282
X0.6071 Y0.1272
X0.6092 Y0.1221
X0.6129 Y0.1178
X0.6176 Y0.1149
X0.6346 Y0.1081
X0.6381 Y0.1068
G3 X0.6405 Y0.1065 I0.0019 J0.0059
G1 X0.6424 Y0.1067 Z-0.0197
X0.6441 Y0.1068 Z-0.0188
X0.6455 Y0.1069 Z-0.0174
X0.6464 Y0.107 Z-0.0157
X0.6467 Z-0.0138
G0 Z0.0787
X0.6567 Y-0.0682
Z-0.0076
G1 Z-0.0138 F20
X0.657 Y-0.068 Z-0.0157
X0.6576 Y-0.0674 Z-0.0174
X0.6586 Y-0.0665 Z-0.0188
X0.6599 Y-0.0654 Z-0.0197
X0.6613 Y-0.0641 Z-0.02
G3 X0.6601 Y-0.062 I-0.0008 J0.0009
G1 X0.658 Y-0.0629
X0.6486 Y-0.0668
X0.6423 Y-0.0694
X0.6368 Y-0.072
X0.6321 Y-0.0756
X0.628 Y-0.08
X0.6245 Y-0.0849
X0.6215 Y-0.0901
X0.6189 Y-0.0955
X0.616 Y-0.1027
X0.6135 Y-0.1103
X0.6108 Y-0.1215
X0.6084 Y-0.1348
X0.6062 Y-0.1552
X0.6053 Y-0.1757
X0.6049 Y-0.1963
X0.6048 Y-0.2168
X0.6047 Y-0.2579
X0.6045 Y-0.5456
X0.6044 Y-0.5559
X0.6022 Y-0.5659
X0.5975 Y-0.5751
X0.5908 Y-0.5829
X0.5826 Y-0.5891
X0.5644 Y-0.5986
X0.5442 Y-0.6027
X0.5238 Y-0.6043
X0.5032 Y-0.6049
X0.4827 Y-0.6051
X0.4621 Y-0.6052
X0.3799
X0.1744 Y-0.6051
X0.1539
X0.1409 Y-0.6055
X0.1342 Y-0.6061
X0.1283 Y-0.6071
X0.1271 Y-0.6073
X0.122 Y-0.6095
X0.1177 Y-0.6131
X0.1148 Y-0.6179
X0.1081 Y-0.6346
X0.1067 Y-0.6383
G3 X0.1064 Y-0.6407 I0.0059 J-0.0019
G1 X0.1066 Y-0.6426 Z-0.0197
X0.1067 Y-0.6443 Z-0.0188
X0.1068 Y-0.6457 Z-0.0174
X0.1069 Y-0.6466 Z-0.0157
Y-0.6469 Z-0.0138
G0 Z0.0787
X-0.0683 Y-0.6567
Z-0.0076
G1 Z-0.0138 F20
X-0.0681 Y-0.657 Z-0.0157
X-0.0675 Y-0.6576 Z-0.0174
X-0.0665 Y-0.6586 Z-0.0188
X-0.0654 Y-0.6599 Z-0.0197
X-0.0641 Y-0.6613 Z-0.02
G3 X-0.062 Y-0.6601 I0.0009 J0.0008
G1 X-0.063 Y-0.658
X-0.0669 Y-0.6486
X-0.0695 Y-0.6423
X-0.072 Y-0.6368
X-0.0757 Y-0.6321
X-0.0801 Y-0.6281
X-0.085 Y-0.6246
X-0.0902 Y-0.6216
X-0.0956 Y-0.619
X-0.1009 Y-0.6169
X-0.1063 Y-0.6157
X-0.1118 Y-0.6163
X-0.1168 Y-0.6185
G3 X-0.1163 Y-0.629 I0.0035 J-0.0051
G1 X-0.0782 Y-0.6499
G3 X-0.0695 Y-0.6423 I0.003 J0.0054
G1 X-0.0747 Y-0.6293
X-0.0769 Y-0.6239
X-0.0794 Y-0.6184
X-0.083 Y-0.6136
X-0.0874 Y-0.6096
X-0.0875 Y-0.6095
X-0.0932 Y-0.6072
X-0.0993 Y-0.6069
X-0.1052 Y-0.6087
X-0.11 Y-0.6124
G3 X-0.1077 Y-0.6222 I0.0047 J-0.004
G1 X-0.0851 Y-0.6317
G3 X-0.0769 Y-0.6239 I0.0024 J0.0057
G1 X-0.0834 Y-0.6076
X-0.0859 Y-0.6021
X-0.0911 Y-0.5998
X-0.0967
X-0.1018 Y-0.6022
X-0.1055 Y-0.6064
G3 X-0.1059 Y-0.6164 I0.0106 J-0.0053
X-0.0834 Y-0.6076 I0.0111 J0.0047
G1 X-0.0869 Y-0.5988
X-0.0875 Y-0.5973
X-0.0882 Y-0.5957
X-0.0886 Y-0.5947
X-0.0927 Y-0.5936
X-0.0968 Y-0.5943
X-0.1003 Y-0.5966
X-0.1024 Y-0.6002
G3 X-0.1009 Y-0.6049 I0.0042 J-0.0012
X-0.0882 Y-0.5957 I0.005 J0.0064
G1 X-0.0887 Y-0.5944
X-0.0892 Y-0.5935
X-0.0898 Y-0.5926
X-0.0902 Y-0.5922
X-0.0907 Y-0.5917
X-0.0911 Y-0.5913
X-0.0916 Y-0.591
X-0.0925 Y-0.5906
X-0.0933 Y-0.5903
X-0.0939 Y-0.5902
X-0.0945
X-0.0951
X-0.0957 Y-0.5903
X-0.0963 Y-0.5904
X-0.0968 Y-0.5906
X-0.0974 Y-0.5908
X-0.098 Y-0.5911
X-0.0988 Y-0.5917
X-0.0993 Y-0.5922
X-0.0997 Y-0.5926
X-0.1 Y-0.5932
X-0.1004 Y-0.5938
X-0.1008 Y-0.595
X-0.1014 Y-0.5973
X-0.1027 Y-0.6011
X-0.1031 Y-0.602
X-0.1056 Y-0.6066
X-0.1073 Y-0.6094
X-0.1077 Y-0.6099
X-0.112 Y-0.6146
X-0.1133 Y-0.616
X-0.1167 Y-0.6183
X-0.1203 Y-0.6206
X-0.1213 Y-0.6212
X-0.126 Y-0.6231
X-0.1307 Y-0.6242
X-0.133 Y-0.6248
X-0.1353 Y-0.6249
X-0.14 Y-0.6251
X-0.1447 Y-0.6245
X-0.1493 Y-0.6235
X-0.154 Y-0.6222
X-0.1867 Y-0.6124
X-0.1971 Y-0.6098
X-0.2077 Y-0.608
X-0.2256 Y-0.6061
X-0.2461 Y-0.6053
X-0.2667 Y-0.605
X-0.2872
X-0.4722 Y-0.6048
X-0.5338
X-0.5439 Y-0.603
X-0.5532 Y-0.5987
X-0.5613 Y-0.5923
X-0.5678 Y-0.5844
X-0.5777 Y-0.5663
X-0.5821 Y-0.5463
X-0.5839 Y-0.5258
X-0.5845 Y-0.5053
X-0.5847 Y-0.4847
X-0.5848 Y-0.4642
X-0.5849 Y-0.382
Y-0.2174
X-0.5851 Y-0.2145
X-0.5858 Y-0.2118
X-0.5869 Y-0.2092
X-0.5918 Y-0.1997
X-0.593 Y-0.196
X-0.5941 Y-0.1913
X-0.5948 Y-0.1866
X-0.5962 Y-0.1726
X-0.5966 Y-0.168
X-0.597 Y-0.1633
X-0.5964 Y-0.1569
X-0.5963 Y-0.1563
X-0.5942 Y-0.1493
X-0.5938 Y-0.1479
X-0.5933 Y-0.1461
X-0.5919 Y-0.1403
X-0.5918 Y-0.1379
X-0.593 Y-0.1309
X-0.5969 Y-0.125
X-0.6028 Y-0.121
G3 X-0.6108 Y-0.1288 I-0.0022 J-0.0058
G1 X-0.6051 Y-0.1461
G3 X-0.5933 I0.0059 J0.0019
G1 X-0.5927 Y-0.1439
X-0.5914 Y-0.14
X-0.5899 Y-0.1353
X-0.5892 Y-0.133
X-0.5891 Y-0.1324
Y-0.1318
Y-0.1312
X-0.5892 Y-0.1306
X-0.5895 Y-0.1295
X-0.5897 Y-0.1289
X-0.59 Y-0.1283
X-0.5905 Y-0.1276
X-0.5912 Y-0.1268
X-0.5918 Y-0.1263
X-0.5927 Y-0.1259
X-0.5973 Y-0.1234
X-0.602 Y-0.1213
X-0.6176 Y-0.1149
G3 X-0.62 Y-0.1146 I-0.0021 J-0.0058
G1 X-0.6219 Z-0.0197
X-0.6236 Y-0.1147 Z-0.0188
X-0.625 Y-0.1148 Z-0.0174
X-0.6259 Z-0.0157
X-0.6262 Z-0.0138
G0 Z0.0787
X-0.6388 Y0.0756
Z-0.0076
G1 Z-0.0138 F20
X-0.6391 Y0.0754 Z-0.0157
X-0.6397 Y0.0748 Z-0.0174
X-0.6408 Y0.0739 Z-0.0188
X-0.6421 Y0.0728 Z-0.0197
X-0.6435 Y0.0716 Z-0.02
G3 X-0.6423 Y0.0695 I0.0008 J-0.0009
G1 X-0.6294 Y0.0747
X-0.6239 Y0.0769
X-0.6185 Y0.0794
X-0.6136 Y0.0829
X-0.6095 Y0.0873
X-0.6059 Y0.0921
X-0.6028 Y0.0972
X-0.6001 Y0.1026
X-0.5973 Y0.1093
X-0.597 Y0.1101
X-0.5963 Y0.1129
X-0.596 Y0.1157
X-0.5963 Y0.1186
G3 X-0.6075 Y0.1209 I-0.0061 J-0.0012
G1 X-0.6311 Y0.0862
G3 X-0.6239 Y0.0769 I0.0051 J-0.0035
G1 X-0.6038 Y0.0849
X-0.602 Y0.0857
X-0.6006 Y0.0862
X-0.5951 Y0.0887
X-0.592 Y0.0935
X-0.5909 Y0.0991
X-0.5919 Y0.1046
G3 X-0.6031 Y0.105 I-0.0057 J-0.0024
G1 X-0.6082 Y0.0948
G3 X-0.6006 Y0.0862 I0.0055 J-0.0028
G1 X-0.5973 Y0.0875
X-0.5927 Y0.0896
X-0.592 Y0.0899
X-0.5914 Y0.0903
X-0.5908 Y0.0908
X-0.5902 Y0.0915
X-0.5899 Y0.0919
X-0.5896 Y0.0924
X-0.5892 Y0.0933
X-0.5891 Y0.0939
X-0.589 Y0.0945
X-0.5889 Y0.0957
Y0.0963
X-0.589 Y0.0968
X-0.5892 Y0.0974
X-0.5893 Y0.098
X-0.5929 Y0.1073
X-0.5946 Y0.112
X-0.596 Y0.1167
X-0.5967 Y0.1213
X-0.597 Y0.1243
X-0.5971 Y0.1248
X-0.596 Y0.14
X-0.5946 Y0.154
X-0.5932 Y0.1605
X-0.593 Y0.1614
X-0.5928 Y0.1618
X-0.5908 Y0.1675
X-0.5889 Y0.1765
X-0.5869 Y0.1906
X-0.5855 Y0.211
X-0.585 Y0.2316
X-0.5849 Y0.2521
X-0.5848 Y0.2932
Y0.5193
X-0.5847 Y0.5398
X-0.5813 Y0.5495
X-0.5757 Y0.5581
X-0.5683 Y0.5653
X-0.5511 Y0.5766
X-0.5313 Y0.5818
X-0.5108 Y0.5839
X-0.4903 Y0.5847
X-0.4697 Y0.585
X-0.4492 Y0.5851
X-0.3875
X-0.217
X-0.2142 Y0.5853
X-0.2114 Y0.586
X-0.2088 Y0.5871
X-0.1998 Y0.5918
X-0.196 Y0.593
X-0.1913 Y0.5941
X-0.1867 Y0.5948
X-0.1727 Y0.5962
X-0.168 Y0.5966
X-0.1633 Y0.597
X-0.1569 Y0.5964
X-0.1563 Y0.5963
X-0.1493 Y0.5942
X-0.1479 Y0.5938
X-0.1461 Y0.5933
X-0.1403 Y0.5919
X-0.1378 Y0.5918
X-0.1309 Y0.5931
X-0.125 Y0.5969
X-0.121 Y0.6028
G3 X-0.1288 Y0.6108 I-0.0058 J0.0022
G1 X-0.1461 Y0.6051
G3 Y0.5933 I0.002 J-0.0059
G1 X-0.1439 Y0.5927
X-0.14 Y0.5914
X-0.1353 Y0.5899
X-0.133 Y0.5892
X-0.1324 Y0.5891
X-0.1318
X-0.1313
X-0.1307 Y0.5892
X-0.1295 Y0.5895
X-0.1289 Y0.5897
X-0.1283 Y0.59
X-0.1276 Y0.5905
X-0.1269 Y0.5912
X-0.1264 Y0.5919
X-0.1259 Y0.5927
X-0.1234 Y0.5973
X-0.1213 Y0.602
X-0.1149 Y0.6178
G3 X-0.1145 Y0.6202 I-0.0058 J0.0021
G1 X-0.1146 Y0.6221 Z-0.0197
X-0.1147 Y0.6238 Z-0.0188
Y0.6252 Z-0.0174
X-0.1148 Y0.6261 Z-0.0157
Y0.6264 Z-0.0138
G0 Z0.0787
X0.2175 Y0.6088
Z-0.0076
G1 Z-0.0138 F20
X0.2172 Z-0.0157
X0.2163 Y0.6086 Z-0.0174
X0.215 Y0.6084 Z-0.0188
X0.2133 Y0.6081 Z-0.0197
X0.2114 Y0.6077 Z-0.02
G3 Y0.6053 I0.0002 J-0.0012
G1 X0.2158 Y0.6047
X0.2164 Y0.6045
X0.224 Y0.6018
X0.2286 Y0.5999
X0.238 Y0.5957
X0.2435 Y0.5934
X0.2492 Y0.5915
X0.2564 Y0.5897
X0.2668 Y0.5879
X0.2847 Y0.586
X0.3052 Y0.5852
X0.3258 Y0.585
X0.3463 Y0.5849
X0.5313 Y0.5848
X0.5415 Y0.5837
X0.551 Y0.5799
X0.5595 Y0.574
X0.5664 Y0.5664
X0.5771 Y0.5489
X0.582 Y0.5289
X0.5839 Y0.5084
X0.5846 Y0.4879
X0.5849 Y0.4673
X0.585 Y0.4468
Y0.3851
X0.5849 Y0.2172
X0.5851 Y0.2144
X0.5858 Y0.2116
X0.5869 Y0.209
X0.5918 Y0.1998
X0.5929 Y0.196
X0.5941 Y0.1913
X0.5947 Y0.1867
X0.5962 Y0.1727
X0.5966 Y0.168
X0.5969 Y0.1633
X0.5964 Y0.1569
X0.5963 Y0.1563
X0.5942 Y0.1493
X0.5938 Y0.1479
X0.5933 Y0.1461
X0.5919 Y0.1403
X0.5918 Y0.1379
X0.593 Y0.1309
X0.5969 Y0.125
X0.6027 Y0.121
G3 X0.6108 Y0.1288 I0.0022 J0.0058
G1 X0.605 Y0.1461
G3 X0.5933 I-0.0059 J-0.0019
G1 X0.5926 Y0.1439
X0.5914 Y0.14
X0.5899 Y0.1353
X0.5892 Y0.133
X0.5891 Y0.1324
Y0.1318
Y0.1313
X0.5892 Y0.1307
X0.5895 Y0.1295
X0.5897 Y0.1289
X0.59 Y0.1283
X0.5905 Y0.1276
X0.5912 Y0.1269
X0.5918 Y0.1264
X0.5926 Y0.1259
X0.5973 Y0.1234
X0.602 Y0.1213
X0.6176 Y0.1149
G3 X0.62 Y0.1146 I0.0021 J0.0058
G1 X0.6219 Z-0.0197
X0.6237 Y0.1147 Z-0.0188
X0.625 Y0.1148 Z-0.0174
X0.6259 Z-0.0157
X0.6262 Z-0.0138
G0 Z0.0787
X0.6388 Y-0.0756
Z-0.0076
G1 Z-0.0138 F20
X0.639 Y-0.0754 Z-0.0157
X0.6397 Y-0.0748 Z-0.0174
X0.6407 Y-0.0739 Z-0.0188
X0.6421 Y-0.0728 Z-0.0197
X0.6435 Y-0.0715 Z-0.02
G3 X0.6423 Y-0.0694 I-0.0008 J0.0009
G1 X0.6293 Y-0.0746
X0.6239 Y-0.0768
X0.6184 Y-0.0793
X0.6136 Y-0.0829
X0.6094 Y-0.0872
X0.6058 Y-0.092
X0.6027 Y-0.0971
X0.6 Y-0.1025
X0.5972 Y-0.1092
X0.597 Y-0.11
X0.5963 Y-0.1127
X0.596 Y-0.1156
X0.5962 Y-0.1185
G3 X0.6074 Y-0.1208 I0.0061 J0.0012
G1 X0.6311 Y-0.0862
G3 X0.6239 Y-0.0768 I-0.0051 J0.0035
G1 X0.6038 Y-0.0849
X0.602 Y-0.0856
X0.6005 Y-0.0862
X0.5951 Y-0.0887
X0.592 Y-0.0935
X0.5909 Y-0.099
X0.5919 Y-0.1046
G3 X0.6031 Y-0.1049 I0.0057 J0.0024
G1 X0.6082 Y-0.0948
G3 X0.6005 Y-0.0862 I-0.0055 J0.0028
G1 X0.5973 Y-0.0875
X0.5926 Y-0.0896
X0.592 Y-0.0899
X0.5914 Y-0.0903
X0.5908 Y-0.0908
X0.5902 Y-0.0914
X0.5899 Y-0.0919
X0.5896 Y-0.0924
X0.5892 Y-0.0933
X0.5891 Y-0.0939
X0.589 Y-0.0945
X0.5889 Y-0.0956
Y-0.0962
X0.589 Y-0.0968
X0.5891 Y-0.0974
X0.5893 Y-0.098
X0.5929 Y-0.1073
X0.5946 Y-0.112
X0.5959 Y-0.1166
X0.5967 Y-0.1213
X0.597 Y-0.1242
Y-0.1248
X0.5959 Y-0.14
X0.5946 Y-0.154
X0.5932 Y-0.1604
X0.593 Y-0.1613
X0.5928 Y-0.1618
X0.5908 Y-0.1674
X0.5889 Y-0.1764
X0.5869 Y-0.1902
X0.5854 Y-0.2107
X0.5849 Y-0.2312
X0.5848 Y-0.2517
X0.5847 Y-0.2928
X0.5846 Y-0.5189
X0.5845 Y-0.5394
X0.5812 Y-0.5492
X0.5757 Y-0.5579
X0.5684 Y-0.5651
X0.5514 Y-0.5765
X0.5315 Y-0.5818
X0.5111 Y-0.584
X0.4905 Y-0.5848
X0.47 Y-0.5851
X0.4494 Y-0.5852
X0.3878
X0.2407
X0.2397
X0.238 Y-0.5853
X0.2333 Y-0.5852
X0.2319 Y-0.5849
X0.2301 Y-0.5846
X0.2242 Y-0.5838
X0.218 Y-0.5841
X0.2153 Y-0.5844
X0.2128 Y-0.5851
X0.2103 Y-0.5862
G3 X0.2138 Y-0.5977 I0.0031 J-0.0053
G1 X0.2291 Y-0.5968
G3 X0.2301 Y-0.5846 I-0.0004 J0.0062
G1 X0.2286 Y-0.5843
X0.2247 Y-0.5833
X0.2216 Y-0.5822
X0.2211 Y-0.5821
X0.2205 Y-0.582
X0.2199
X0.2193 Y-0.5821
X0.2175 Y-0.5824
X0.2166 Y-0.5828
X0.21 Y-0.5864
X0.1997 Y-0.5918
X0.196 Y-0.5929
X0.1913 Y-0.5941
X0.1866 Y-0.5947
X0.1726 Y-0.5962
X0.168 Y-0.5966
X0.1633 Y-0.5969
X0.1569 Y-0.5964
X0.1563 Y-0.5963
X0.1493 Y-0.5942
X0.1479 Y-0.5938
X0.1461 Y-0.5933
X0.1403 Y-0.5919
X0.1377 Y-0.5918
X0.1308 Y-0.5931
X0.1249 Y-0.5969
X0.121 Y-0.6028
G3 X0.1288 Y-0.6108 I0.0058 J-0.0022
G1 X0.1461 Y-0.605
G3 Y-0.5933 I-0.002 J0.0059
G1 X0.1439 Y-0.5926
X0.14 Y-0.5914
X0.1353 Y-0.5899
X0.133 Y-0.5892
X0.1324 Y-0.5891
X0.1318
X0.1312
X0.1306 Y-0.5892
X0.1295 Y-0.5895
X0.1289 Y-0.5897
X0.1283 Y-0.59
X0.1276 Y-0.5905
X0.1268 Y-0.5912
X0.1264 Y-0.5918
X0.1259 Y-0.5926
X0.1234 Y-0.5973
X0.1213 Y-0.602
X0.1148 Y-0.6179
G3 X0.1144 Y-0.6203 I0.0058 J-0.0021
G1 X0.1145 Y-0.6222 Z-0.0197
X0.1146 Y-0.6239 Z-0.0188
Y-0.6253 Z-0.0174
X0.1147 Y-0.6262 Z-0.0157
Y-0.6265 Z-0.0138
G0 Z0.0787
X-0.1932 Y-0.615
Z-0.0076
G1 Z-0.0138 F20
X-0.1929 Z-0.0157
X-0.192 Z-0.0174
X-0.1907 Y-0.6149 Z-0.0188
X-0.1889 Z-0.0197
X-0.187 Y-0.6148 Z-0.02
G3 X-0.1867 Y-0.6124 J0.0012
G1 X-0.196 Y-0.6096
X-0.2007 Y-0.6082
X-0.2166 Y-0.602
X-0.2359 Y-0.5942
X-0.2416 Y-0.5922
X-0.2481 Y-0.5905
X-0.2573 Y-0.5886
X-0.2719 Y-0.5867
X-0.2924 Y-0.5854
X-0.313 Y-0.5851
X-0.3335 Y-0.5849
X-0.3952
X-0.5185 Y-0.5848
X-0.5283 Y-0.5817
X-0.5371 Y-0.5764
X-0.5444 Y-0.5692
X-0.5559 Y-0.5522
X-0.5614 Y-0.5324
X-0.5636 Y-0.5119
X-0.5644 Y-0.4914
X-0.5647 Y-0.4708
X-0.5648 Y-0.4503
X-0.5649 Y-0.3886
Y-0.2807
Y-0.2798
X-0.5651 Y-0.2789
X-0.5653 Y-0.2781
X-0.5675 Y-0.266
X-0.568 Y-0.2613
X-0.5682 Y-0.2572
X-0.5681 Y-0.2566
X-0.5675 Y-0.252
X-0.5671 Y-0.2506
X-0.5666 Y-0.2488
X-0.5654 Y-0.2429
X-0.566 Y-0.2386
X-0.5678 Y-0.2345
X-0.5706 Y-0.2312
G3 X-0.5806 Y-0.237 I-0.004 J-0.0048
G1 X-0.5787 Y-0.2481
G3 X-0.5666 Y-0.2488 I0.0061 J0.0011
G1 X-0.5663 Y-0.2473
X-0.5646 Y-0.2426
X-0.5642 Y-0.2415
X-0.564 Y-0.2403
Y-0.2397
Y-0.2391
X-0.5641 Y-0.2386
X-0.5643 Y-0.238
X-0.5647 Y-0.2371
X-0.5649 Y-0.2366
X-0.5652 Y-0.2361
X-0.5656 Y-0.2356
X-0.5661 Y-0.2352
X-0.5735 Y-0.2286
X-0.574 Y-0.2281
X-0.5779 Y-0.224
X-0.5787 Y-0.223
X-0.5811 Y-0.2193
X-0.5839 Y-0.2146
X-0.5869 Y-0.2092
G3 X-0.5885 Y-0.2073 I-0.0054 J-0.0031
G1 X-0.59 Y-0.2061 Z-0.0197
X-0.5913 Y-0.2051 Z-0.0188
X-0.5924 Y-0.2042 Z-0.0174
X-0.5931 Y-0.2037 Z-0.0157
X-0.5934 Y-0.2035 Z-0.0138
G0 Z0.0787
X-0.5947 Y0.1686
Z-0.0076
G1 Z-0.0138 F20
Y0.1683 Z-0.0157
X-0.5948 Y0.1674 Z-0.0174
X-0.5949 Y0.1661 Z-0.0188
X-0.595 Y0.1643 Z-0.0197
X-0.5952 Y0.1624 Z-0.02
G3 X-0.5928 Y0.1618 I0.0012 J-0.0001
G1 X-0.5902 Y0.168
X-0.5876 Y0.1727
X-0.5822 Y0.182
X-0.5794 Y0.1867
X-0.5791 Y0.1872
X-0.5789 Y0.1878
X-0.5787 Y0.189
X-0.5786 Y0.1901
Y0.1906
X-0.579 Y0.1937
X-0.5791 Y0.196
Y0.2014
X-0.579 Y0.202
X-0.576 Y0.2147
X-0.575 Y0.2193
X-0.5699 Y0.2473
X-0.5671 Y0.2656
X-0.5655 Y0.286
X-0.565 Y0.3066
X-0.5649 Y0.3271
X-0.5648 Y0.3682
Y0.5121
X-0.5635 Y0.5223
X-0.5597 Y0.5318
X-0.5537 Y0.5402
X-0.5461 Y0.547
X-0.5284 Y0.5575
X-0.5084 Y0.5622
X-0.4879 Y0.564
X-0.4674 Y0.5647
X-0.4468 Y0.565
X-0.4263 Y0.5651
X-0.3646
X-0.2441
X-0.2392 Y0.5658
X-0.2346 Y0.5678
X-0.2309 Y0.571
X-0.2287 Y0.5735
X-0.2281 Y0.574
X-0.224 Y0.5779
X-0.2231 Y0.5787
X-0.2193 Y0.5811
X-0.2147 Y0.5839
X-0.2088 Y0.5871
G3 X-0.207 Y0.5887 I-0.0031 J0.0054
G1 X-0.2058 Y0.5902 Z-0.0197
X-0.2047 Y0.5915 Z-0.0188
X-0.2039 Y0.5926 Z-0.0174
X-0.2034 Y0.5933 Z-0.0157
X-0.2032 Y0.5936 Z-0.0138
G0 Z0.0787
X0.2448 Y0.5972
Z-0.0076
G1 Z-0.0138 F20
X0.2445 Y0.5973 Z-0.0157
X0.2437 Y0.5974 Z-0.0174
X0.2423 Y0.5976 Z-0.0188
X0.2406 Y0.5978 Z-0.0197
X0.2387 Y0.598 Z-0.02
G3 X0.238 Y0.5957 I-0.0002 J-0.0012
G1 X0.2473 Y0.5912
X0.2613 Y0.5843
X0.266 Y0.5819
X0.2721 Y0.5787
X0.2753 Y0.5769
X0.2807 Y0.5742
X0.2864 Y0.5722
X0.2932 Y0.5704
X0.3029 Y0.5685
X0.3183 Y0.5666
X0.3388 Y0.5654
X0.3593 Y0.565
X0.3799 Y0.5649
X0.4415
X0.5032 Y0.5648
X0.5135 Y0.5647
X0.5236 Y0.563
X0.533 Y0.5588
X0.5411 Y0.5525
X0.5477 Y0.5447
X0.5577 Y0.5267
X0.5622 Y0.5067
X0.564 Y0.4862
X0.5647 Y0.4656
X0.5649 Y0.4451
X0.565 Y0.4246
Y0.3424
X0.5649 Y0.2442
X0.5656 Y0.2393
X0.5677 Y0.2347
X0.5709 Y0.231
X0.5734 Y0.2287
X0.574 Y0.2281
X0.5779 Y0.224
X0.5786 Y0.2231
X0.5811 Y0.2193
X0.5839 Y0.2147
X0.5869 Y0.209
G3 X0.5885 Y0.2072 I0.0054 J0.0031
G1 X0.59 Y0.206 Z-0.0197
X0.5914 Y0.2049 Z-0.0188
X0.5925 Y0.2041 Z-0.0174
X0.5932 Y0.2036 Z-0.0157
X0.5934 Y0.2034 Z-0.0138
G0 Z0.0787
X0.5947 Y-0.1686
Z-0.0076
G1 Z-0.0138 F20
Y-0.1683 Z-0.0157
X0.5948 Y-0.1674 Z-0.0174
X0.5949 Y-0.166 Z-0.0188
X0.595 Y-0.1643 Z-0.0197
X0.5952 Y-0.1624 Z-0.02
G3 X0.5928 Y-0.1618 I-0.0012 J0.0001
G1 X0.5902 Y-0.168
X0.5876 Y-0.1726
X0.5822 Y-0.182
X0.5791 Y-0.1866
X0.5758 Y-0.1917
X0.5735 Y-0.1972
X0.5716 Y-0.2029
X0.5698 Y-0.2104
X0.5679 Y-0.2212
X0.5659 Y-0.2392
X0.565 Y-0.2597
X0.5648 Y-0.2803
X0.5647 Y-0.3008
X0.5646 Y-0.4036
Y-0.5063
X0.5644 Y-0.5166
X0.562 Y-0.5266
X0.5574 Y-0.5357
X0.5506 Y-0.5434
X0.5423 Y-0.5495
X0.524 Y-0.5588
X0.5038 Y-0.5628
X0.4833 Y-0.5643
X0.4628 Y-0.5649
X0.4422 Y-0.5651
X0.4217 Y-0.5652
X0.3189
X0.2848
X0.2814 Y-0.5655
X0.2782 Y-0.5665
X0.2752 Y-0.568
X0.2613 Y-0.5771
X0.2543 Y-0.5813
X0.2537 Y-0.5816
X0.2473 Y-0.584
X0.245 Y-0.5845
X0.2426 Y-0.585
X0.2397 Y-0.5852
G3 X0.2374 Y-0.586 I0.0007 J-0.0062
G1 X0.2357 Y-0.5869 Z-0.0197
X0.2342 Y-0.5877 Z-0.0188
X0.233 Y-0.5884 Z-0.0174
X0.2322 Y-0.5888 Z-0.0157
X0.232 Y-0.589 Z-0.0138
G0 Z0.0787
X-0.2427 Y-0.5962
Z-0.0076
G1 Z-0.0138 F20
X-0.2424 Z-0.0157
X-0.2415 Z-0.0174
X-0.2401 Y-0.5963 Z-0.0188
X-0.2384 Y-0.5964 Z-0.0197
X-0.2365 Y-0.5966 Z-0.02
G3 X-0.2359 Y-0.5942 I0.0001 J0.0012
G1 X-0.2473 Y-0.5896
X-0.2567 Y-0.5854
X-0.2707 Y-0.5778
X-0.2761 Y-0.5752
X-0.2817 Y-0.573
X-0.2878 Y-0.5711
X-0.296 Y-0.5693
X-0.3084 Y-0.5674
X-0.3289 Y-0.5656
X-0.3494 Y-0.5651
X-0.37 Y-0.565
X-0.4111 Y-0.5649
X-0.4933 Y-0.5648
X-0.5034 Y-0.5632
X-0.5129 Y-0.5591
X-0.521 Y-0.5529
X-0.5276 Y-0.545
X-0.5376 Y-0.5271
X-0.5421 Y-0.507
X-0.5438 Y-0.4865
X-0.5445 Y-0.466
X-0.5447 Y-0.4454
X-0.5448 Y-0.4249
X-0.5449 Y-0.3427
Y-0.311
X-0.5457 Y-0.3058
X-0.548 Y-0.301
X-0.5516 Y-0.2971
X-0.5557 Y-0.294
X-0.5579 Y-0.2916
X-0.5623 Y-0.2851
X-0.5626 Y-0.2846
X-0.5653 Y-0.2781
G3 X-0.5667 Y-0.2761 I-0.0057 J-0.0024
G1 X-0.5681 Y-0.2748 Z-0.0197
X-0.5693 Y-0.2735 Z-0.0188
X-0.5703 Y-0.2726 Z-0.0174
X-0.5709 Y-0.272 Z-0.0157
X-0.5711 Y-0.2717 Z-0.0138
G0 Z0.0787
X-0.2776 Y-0.579
Z-0.0076
G1 Z-0.0138 F20
X-0.2773 Z-0.0157
X-0.2765 Y-0.5792 Z-0.0174
X-0.2751 Y-0.5794 Z-0.0188
X-0.2734 Y-0.5797 Z-0.0197
X-0.2715 Y-0.5801 Z-0.02
G3 X-0.2707 Y-0.5778 I0.0002 J0.0012
G1 X-0.2893 Y-0.5676
X-0.2946 Y-0.5646
X-0.3059 Y-0.5579
X-0.3112 Y-0.5551
X-0.3168 Y-0.553
X-0.3233 Y-0.5511
X-0.3318 Y-0.5492
X-0.3449 Y-0.5472
X-0.3654 Y-0.5456
X-0.386 Y-0.5451
X-0.4065 Y-0.5449
X-0.4476
X-0.4682 Y-0.5448
X-0.4784 Y-0.5443
X-0.4883 Y-0.5414
X-0.4971 Y-0.5362
X-0.5044 Y-0.529
X-0.516 Y-0.512
X-0.5214 Y-0.4921
X-0.5236 Y-0.4717
X-0.5244 Y-0.4512
X-0.5247 Y-0.4306
X-0.5248 Y-0.4101
X-0.5249 Y-0.3484
Y-0.3279
X-0.5252 Y-0.3219
X-0.5257 Y-0.3184
X-0.5278 Y-0.3119
X-0.5323 Y-0.3067
X-0.5385 Y-0.3037
X-0.5413 Y-0.3028
X-0.546 Y-0.3007
X-0.5488 Y-0.2993
X-0.5507 Y-0.2979
X-0.5516 Y-0.2971
G3 X-0.5538 Y-0.2961 I-0.0037 J-0.005
G1 X-0.5557 Y-0.2957 Z-0.0197
X-0.5574 Y-0.2953 Z-0.0188
X-0.5587 Y-0.2949 Z-0.0174
X-0.5595 Y-0.2947 Z-0.0157
X-0.5598 Z-0.0138
G0 Z0.0787
X-0.3129 Y-0.5588
Z-0.0076
G1 Z-0.0138 F20
X-0.3126 Y-0.5589 Z-0.0157
X-0.3117 Y-0.5591 Z-0.0174
X-0.3104 Y-0.5594 Z-0.0188
X-0.3087 Y-0.5597 Z-0.0197
X-0.3068 Y-0.5602 Z-0.02
G3 X-0.3059 Y-0.5579 I0.0003 J0.0012
G1 X-0.308 Y-0.5567
X-0.3313 Y-0.5409
X-0.3365 Y-0.5378
X-0.3418 Y-0.5351
X-0.3475 Y-0.533
X-0.3541 Y-0.5311
X-0.3631 Y-0.5292
X-0.3765 Y-0.5272
X-0.397 Y-0.5256
X-0.4176 Y-0.5251
X-0.4381 Y-0.5249
X-0.4587
X-0.4684 Y-0.5217
X-0.4773 Y-0.5165
X-0.4846 Y-0.5093
X-0.4961 Y-0.4922
X-0.5014 Y-0.4724
X-0.5036 Y-0.452
X-0.5044 Y-0.4314
X-0.5047 Y-0.4109
X-0.5048 Y-0.3926
X-0.5053 Y-0.3884
X-0.5066 Y-0.3844
X-0.5087 Y-0.3807
X-0.5106 Y-0.378
X-0.5133 Y-0.3736
X-0.5135 Y-0.3733
X-0.5154 Y-0.3686
X-0.5167 Y-0.3645
X-0.5168 Y-0.364
X-0.5177 Y-0.3575
X-0.5174 Y-0.3511
X-0.5173 Y-0.3506
X-0.5161 Y-0.3453
X-0.5148 Y-0.3406
X-0.5134 Y-0.336
X-0.5119 Y-0.3302
X-0.5114 Y-0.3242
X-0.5115 Y-0.3216
X-0.5132 Y-0.3151
X-0.5171 Y-0.3097
X-0.5228 Y-0.3062
X-0.5294 Y-0.305
G3 X-0.5348 Y-0.3137 I0.0003 J-0.0062
G1 X-0.5249 Y-0.3364
G3 X-0.5134 Y-0.336 I0.0057 J0.0025
G1 X-0.5081 Y-0.3188
X-0.5076 Y-0.3173
X-0.5072 Y-0.3159
X-0.5065 Y-0.313
X-0.5091 Y-0.3079
X-0.5139 Y-0.3047
X-0.5196 Y-0.3041
G3 X-0.5267 Y-0.3123 I0.0015 J-0.0085
X-0.5072 Y-0.3159 I0.01 J-0.0003
G1 X-0.5058 Y-0.3115
X-0.5057 Y-0.3109
X-0.5056 Y-0.3103
Y-0.3097
X-0.5057 Y-0.3091
Y-0.3086
X-0.5059 Y-0.308
X-0.5063 Y-0.307
X-0.5065 Y-0.3066
X-0.5069 Y-0.3061
X-0.5076 Y-0.3052
X-0.5081 Y-0.3046
X-0.5087 Y-0.3042
X-0.5092 Y-0.3039
X-0.5097 Y-0.3037
X-0.5107 Y-0.3033
X-0.5113 Y-0.3032
X-0.512 Y-0.3031
X-0.5127
X-0.5227 Y-0.3045
X-0.5273 Y-0.305
X-0.5297
X-0.532 Y-0.3049
X-0.5367 Y-0.3042
X-0.5385 Y-0.3037
G3 X-0.5409 Y-0.3036 I-0.0014 J-0.006
G1 X-0.5428 Y-0.3039 Z-0.0197
X-0.5445 Y-0.3041 Z-0.0188
X-0.5458 Y-0.3044 Z-0.0174
X-0.5467 Y-0.3045 Z-0.0157
X-0.547 Z-0.0138
G0 Z0.0787
X-0.3384 Y-0.5414
Z-0.0076
G1 Z-0.0138 F20
X-0.3381 Y-0.5415 Z-0.0157
X-0.3372 Y-0.5417 Z-0.0174
X-0.3359 Y-0.5421 Z-0.0188
X-0.3342 Y-0.5426 Z-0.0197
X-0.3324 Y-0.5431 Z-0.02
G3 X-0.3313 Y-0.5409 I0.0003 J0.0012
G1 X-0.3377 Y-0.5366
X-0.3407 Y-0.5345
X-0.3536 Y-0.5249
X-0.3541 Y-0.5242
X-0.358 Y-0.5197
X-0.3633 Y-0.5167
X-0.3688 Y-0.5144
X-0.3748 Y-0.5124
X-0.3823 Y-0.5105
X-0.3931 Y-0.5084
X-0.41 Y-0.5064
X-0.4305 Y-0.5053
X-0.4407 Y-0.5044
X-0.4504 Y-0.5009
X-0.4589 Y-0.4952
X-0.466 Y-0.4877
X-0.4768 Y-0.4702
X-0.4817 Y-0.4503
X-0.4837 Y-0.4298
X-0.4844 Y-0.4093
X-0.4846 Y-0.4072
X-0.4862 Y-0.4007
X-0.4899 Y-0.395
X-0.4952 Y-0.3909
X-0.4993 Y-0.3887
X-0.5013 Y-0.3873
X-0.504 Y-0.3852
X-0.5068 Y-0.3826
X-0.5087 Y-0.3807
G3 X-0.5105 Y-0.3791 I-0.0223 J-0.0226
X-0.5525 Y-0.4266 I-0.0205 J-0.0242
G1 X-0.4015 Y-0.566
G3 X-0.3541 Y-0.5242 I0.0215 J0.0233
G1 X-0.359 Y-0.518
X-0.3593 Y-0.5173
X-0.3613 Y-0.5133
X-0.3642 Y-0.508
X-0.3685 Y-0.5038
X-0.3734 Y-0.5004
X-0.3787 Y-0.4976
X-0.3843 Y-0.4953
X-0.3902 Y-0.4932
X-0.3986 Y-0.491
X-0.4187 Y-0.487
X-0.4284 Y-0.4836
X-0.4371 Y-0.4782
X-0.4444 Y-0.4709
X-0.4559 Y-0.4539
X-0.4613 Y-0.4341
X-0.463 Y-0.4194
X-0.4641 Y-0.4135
X-0.4657 Y-0.4077
X-0.4658 Y-0.4074
X-0.469 Y-0.4018
X-0.4739 Y-0.3977
X-0.4799 Y-0.3957
X-0.4807 Y-0.3956
X-0.4952 Y-0.3909
G3 X-0.5097 Y-0.4166 I-0.0042 J-0.0146
G1 X-0.3854 Y-0.5306
G3 X-0.3613 Y-0.5133 I0.0102 J0.0112
G1 X-0.3621 Y-0.5115
X-0.3624 Y-0.511
X-0.3641 Y-0.5045
X-0.3642 Y-0.504
X-0.365 Y-0.498
X-0.3681 Y-0.4929
X-0.3721 Y-0.4884
X-0.3768 Y-0.4847
X-0.3819 Y-0.4815
X-0.3875 Y-0.4786
X-0.4064 Y-0.4706
X-0.4149 Y-0.4649
X-0.4224 Y-0.4578
X-0.4346 Y-0.4413
X-0.4434 Y-0.4143
X-0.4457 Y-0.4087
X-0.4474 Y-0.4054
X-0.4508 Y-0.4008
X-0.4555 Y-0.3975
X-0.4611 Y-0.3959
X-0.4668 Y-0.3962
G3 X-0.4698 Y-0.4064 I0.0015 J-0.006
G1 X-0.3749 Y-0.5085
G3 X-0.3642 Y-0.504 I0.0045 J0.0042
G1 X-0.3647 Y-0.4981
Y-0.4975
X-0.3642 Y-0.4927
X-0.364 Y-0.4867
X-0.3662 Y-0.4811
X-0.3696 Y-0.4762
X-0.3737 Y-0.4718
X-0.3893 Y-0.4584
X-0.4047 Y-0.4448
X-0.4156 Y-0.4274
X-0.4215 Y-0.4141
X-0.4248 Y-0.4078
X-0.4279 Y-0.4027
X-0.4315 Y-0.3979
X-0.4329 Y-0.3964
X-0.4373 Y-0.3929
X-0.4426 Y-0.3909
X-0.4482 Y-0.3906
X-0.4537 Y-0.392
X-0.4597 Y-0.3945
X-0.4608 Y-0.3949
X-0.4668 Y-0.3962
G3 X-0.4695 Y-0.4067 I0.0015 J-0.006
G1 X-0.3746 Y-0.4964
G3 X-0.3642 Y-0.4927 I0.0043 J0.0045
G1 X-0.3641 Y-0.4912
X-0.3638 Y-0.49
X-0.3623 Y-0.4847
X-0.3621 Y-0.4841
X-0.36 Y-0.4785
X-0.361 Y-0.4726
X-0.3631 Y-0.467
X-0.366 Y-0.4617
X-0.3698 Y-0.4561
X-0.3823 Y-0.4398
X-0.3939 Y-0.4228
X-0.4021 Y-0.4077
X-0.4061 Y-0.4015
X-0.4097 Y-0.3964
X-0.4136 Y-0.3918
X-0.4179 Y-0.3877
X-0.4226 Y-0.384
X-0.4242 Y-0.3831
X-0.4295 Y-0.381
X-0.4351 Y-0.3808
X-0.4406 Y-0.3823
X-0.4453 Y-0.3855
X-0.4471 Y-0.3873
X-0.448 Y-0.3881
X-0.4527 Y-0.3913
X-0.4537 Y-0.392
G3 X-0.4546 Y-0.4014 I0.0035 J-0.0051
G1 X-0.372 Y-0.4856
G3 X-0.3621 Y-0.4841 I0.0044 J0.0043
G1 X-0.359 Y-0.4778
X-0.3586 Y-0.4772
X-0.3577 Y-0.476
X-0.356 Y-0.4735
X-0.3545 Y-0.4677
X-0.3547 Y-0.4617
X-0.3559 Y-0.4558
X-0.3578 Y-0.4501
X-0.3612 Y-0.4419
X-0.3704 Y-0.4235
X-0.3802 Y-0.406
X-0.3861 Y-0.3969
X-0.391 Y-0.3902
X-0.3956 Y-0.3849
X-0.3998 Y-0.3807
X-0.4043 Y-0.3768
X-0.4092 Y-0.3733
X-0.4145 Y-0.3705
X-0.4168 Y-0.3696
X-0.4229 Y-0.3684
X-0.4291 Y-0.3694
X-0.4345 Y-0.3724
X-0.4387 Y-0.3771
X-0.4392 Y-0.378
X-0.4425 Y-0.3826
X-0.4433 Y-0.3837
X-0.4453 Y-0.3855
G3 Y-0.3941 I0.0044 J-0.0043
G1 X-0.367 Y-0.4764
G3 X-0.3577 Y-0.476 I0.0045 J0.0043
G1 X-0.3542 Y-0.4713
X-0.3519 Y-0.4687
X-0.3481 Y-0.4641
X-0.3462 Y-0.4584
X-0.3456 Y-0.4524
X-0.3459 Y-0.4464
X-0.3468 Y-0.4405
X-0.3483 Y-0.4343
X-0.3507 Y-0.4262
X-0.3544 Y-0.4164
X-0.359 Y-0.4065
X-0.364 Y-0.3973
X-0.3692 Y-0.389
X-0.3741 Y-0.3823
X-0.3789 Y-0.3767
X-0.3833 Y-0.3721
X-0.3878 Y-0.368
X-0.3925 Y-0.3643
X-0.3975 Y-0.361
X-0.4028 Y-0.3582
X-0.4084 Y-0.3561
X-0.4143 Y-0.3547
X-0.4162 Y-0.3546
X-0.4221 Y-0.3551
X-0.4275 Y-0.3575
X-0.4318 Y-0.3616
X-0.4345 Y-0.3669
X-0.435 Y-0.3686
X-0.4368 Y-0.3733
X-0.4387 Y-0.3771
G3 X-0.4376 Y-0.3839 I0.0056 J-0.0026
G1 X-0.361 Y-0.4686
G3 X-0.3519 Y-0.4687 I0.0046 J0.0042
G1 X-0.35 Y-0.4666
X-0.3455 Y-0.462
X-0.3439 Y-0.4609
X-0.3429 Y-0.4602
X-0.3417 Y-0.4594
X-0.3395 Y-0.4577
X-0.3389 Y-0.4566
X-0.3376 Y-0.4535
X-0.3369 Y-0.4503
X-0.3368 Y-0.4469
G3 X-0.3488 Y-0.4457 I-0.0062 J-0.0006
G1 X-0.3509 Y-0.4523
G3 X-0.3417 Y-0.4594 I0.0059 J-0.0019
G1 X-0.3407 Y-0.4587
X-0.3385 Y-0.4573
X-0.3379 Y-0.4567
X-0.3374 Y-0.4561
X-0.337 Y-0.4555
X-0.3367 Y-0.455
X-0.3365 Y-0.4544
X-0.3364 Y-0.4538
X-0.3363 Y-0.4532
X-0.3362 Y-0.4526
X-0.3367 Y-0.448
X-0.337 Y-0.4433
X-0.3365 Y-0.4386
X-0.3361 Y-0.4326
X-0.3364 Y-0.4266
X-0.3372 Y-0.4207
X-0.3385 Y-0.4147
X-0.3404 Y-0.4082
X-0.3431 Y-0.4009
X-0.3464 Y-0.3934
X-0.3502 Y-0.3861
X-0.3545 Y-0.3792
X-0.3591 Y-0.3727
X-0.364 Y-0.3668
X-0.3689 Y-0.3616
X-0.3737 Y-0.3571
X-0.3784 Y-0.3534
X-0.3833 Y-0.3499
X-0.3884 Y-0.3468
X-0.3938 Y-0.3442
X-0.3994 Y-0.342
X-0.4052 Y-0.3406
X-0.4112 Y-0.3398
X-0.4134
X-0.4188 Y-0.3408
X-0.4237 Y-0.3434
X-0.4276 Y-0.3473
X-0.43 Y-0.3523
X-0.4345 Y-0.3669
G3 X-0.4324 Y-0.3734 I0.006 J-0.0016
G1 X-0.3465 Y-0.4426
G3 X-0.3365 Y-0.4386 I0.0039 J0.0048
G1 X-0.3362 Y-0.4364
X-0.3342 Y-0.4299
X-0.3339 Y-0.4293
X-0.3315 Y-0.4246
X-0.329 Y-0.4192
X-0.328 Y-0.4133
X-0.3278 Y-0.4073
X-0.3285 Y-0.4013
X-0.3296 Y-0.3954
X-0.3313 Y-0.3897
X-0.3335 Y-0.3838
X-0.3362 Y-0.3777
X-0.3394 Y-0.3717
X-0.3433 Y-0.3655
X-0.3476 Y-0.3596
X-0.3522 Y-0.354
X-0.3571 Y-0.3488
X-0.3623 Y-0.3441
X-0.3675 Y-0.3399
X-0.3727 Y-0.3363
X-0.3779 Y-0.3332
X-0.3832 Y-0.3305
X-0.3888 Y-0.3282
X-0.3945 Y-0.3263
X-0.4003 Y-0.3251
X-0.4063 Y-0.3245
X-0.4091 Y-0.3246
X-0.4144 Y-0.3256
X-0.4192 Y-0.3283
X-0.4229 Y-0.3322
X-0.4253 Y-0.3371
X-0.43 Y-0.3523
G3 X-0.4278 Y-0.3588 I0.006 J-0.0016
G1 X-0.3407 Y-0.4265
G3 X-0.3315 Y-0.4246 I0.0038 J0.0049
G1 X-0.331 Y-0.4237
X-0.3307 Y-0.4232
X-0.3242 Y-0.4153
X-0.3205 Y-0.4105
X-0.3183 Y-0.4049
X-0.3173 Y-0.399
X-0.3171 Y-0.393
X-0.3177 Y-0.3871
X-0.3188 Y-0.3812
X-0.3205 Y-0.3754
X-0.3226 Y-0.3698
X-0.3252 Y-0.3639
X-0.3283 Y-0.3581
X-0.332 Y-0.3523
X-0.3362 Y-0.3464
X-0.341 Y-0.3408
X-0.3461 Y-0.3354
X-0.3515 Y-0.3305
X-0.3571 Y-0.326
X-0.3628 Y-0.3221
X-0.3685 Y-0.3187
X-0.3741 Y-0.3158
X-0.3796 Y-0.3135
X-0.3853 Y-0.3115
X-0.3911 Y-0.31
X-0.397 Y-0.3091
X-0.403 Y-0.3088
X-0.4051 Y-0.309
X-0.4118 Y-0.3109
X-0.4172 Y-0.3153
X-0.4205 Y-0.3214
X-0.4253 Y-0.3371
G3 X-0.4232 Y-0.3435 I0.006 J-0.0016
G1 X-0.3326 Y-0.416
G3 X-0.3242 Y-0.4153 I0.0039 J0.0048
G1 X-0.322 Y-0.4127
X-0.3198 Y-0.4106
X-0.3173 Y-0.4085
X-0.315 Y-0.4067
X-0.3103 Y-0.403
X-0.3075 Y-0.3977
X-0.3058 Y-0.3919
X-0.3051 Y-0.386
X-0.3052 Y-0.38
X-0.3059 Y-0.374
X-0.3071 Y-0.3681
X-0.3088 Y-0.3624
X-0.311 Y-0.3567
X-0.3137 Y-0.3507
X-0.317 Y-0.3448
X-0.3208 Y-0.3388
X-0.3252 Y-0.3328
X-0.3302 Y-0.3269
X-0.3356 Y-0.3213
X-0.3414 Y-0.3161
X-0.3474 Y-0.3113
X-0.3537 Y-0.3071
X-0.3599 Y-0.3034
X-0.366 Y-0.3004
X-0.372 Y-0.2979
X-0.3778 Y-0.2959
X-0.3836 Y-0.2944
X-0.3895 Y-0.2933
X-0.3955 Y-0.2929
X-0.4015 Y-0.2931
X-0.4019 Y-0.2932
X-0.408 Y-0.2955
X-0.4129 Y-0.2999
X-0.4158 Y-0.3058
X-0.4164 Y-0.308
X-0.4192 Y-0.3173
X-0.4205 Y-0.3214
G3 X-0.4184 Y-0.3278 I0.006 J-0.0016
G1 X-0.3223 Y-0.4064
G3 X-0.315 Y-0.4067 I0.0039 J0.0048
G1 X-0.3139 Y-0.406
X-0.3127 Y-0.4053
X-0.308 Y-0.403
X-0.3066 Y-0.4025
X-0.301 Y-0.4004
X-0.2972 Y-0.3958
X-0.2946 Y-0.3904
X-0.2929 Y-0.3846
X-0.292 Y-0.3787
X-0.2919 Y-0.3727
X-0.2924 Y-0.3667
X-0.2934 Y-0.3608
X-0.2948 Y-0.3549
X-0.2967 Y-0.3492
X-0.2992 Y-0.343
X-0.3023 Y-0.3366
X-0.3059 Y-0.3304
X-0.3102 Y-0.3241
X-0.315 Y-0.3177
X-0.3205 Y-0.3116
X-0.3265 Y-0.3057
X-0.3328 Y-0.3002
X-0.3395 Y-0.2952
X-0.3463 Y-0.2908
X-0.3532 Y-0.287
X-0.3599 Y-0.2838
X-0.3661 Y-0.2814
X-0.3721 Y-0.2795
X-0.3781 Y-0.278
X-0.384 Y-0.277
X-0.39 Y-0.2766
X-0.396 Y-0.2768
X-0.4019 Y-0.2777
X-0.4021 Y-0.2778
X-0.4071 Y-0.2804
X-0.411 Y-0.2844
X-0.4134 Y-0.2895
X-0.414 Y-0.2951
X-0.4141 Y-0.2963
X-0.4143 Y-0.2986
X-0.4151 Y-0.3033
X-0.4158 Y-0.3058
G3 X-0.4139 Y-0.3119 I0.006 J-0.0015
G1 X-0.3124 Y-0.4012
G3 X-0.3066 Y-0.4025 I0.0041 J0.0047
G1 X-0.3023 Y-0.4011
X-0.3017 Y-0.401
X-0.2987 Y-0.4006
X-0.2928 Y-0.3995
X-0.2879 Y-0.396
X-0.2841 Y-0.3914
X-0.2813 Y-0.386
X-0.2794 Y-0.3804
X-0.2783 Y-0.3745
X-0.2778 Y-0.3685
X-0.2779 Y-0.3625
X-0.2785 Y-0.3565
X-0.2796 Y-0.3506
X-0.2812 Y-0.3445
X-0.2833 Y-0.3383
X-0.2859 Y-0.3318
X-0.2892 Y-0.3251
X-0.2932 Y-0.3182
X-0.2979 Y-0.3112
X-0.3032 Y-0.3044
X-0.3091 Y-0.2977
X-0.3155 Y-0.2914
X-0.3224 Y-0.2855
X-0.3296 Y-0.2802
X-0.3369 Y-0.2754
X-0.3442 Y-0.2714
X-0.3515 Y-0.2679
X-0.3587 Y-0.2651
X-0.3654 Y-0.263
X-0.3715 Y-0.2616
X-0.3775 Y-0.2606
X-0.3834 Y-0.26
X-0.3894 Y-0.2599
X-0.3954 Y-0.2605
X-0.4013 Y-0.2617
X-0.4069 Y-0.2639
X-0.407 Y-0.264
X-0.4115 Y-0.2675
X-0.4146 Y-0.2723
X-0.416 Y-0.2778
X-0.4156 Y-0.2835
X-0.4143 Y-0.2887
X-0.414 Y-0.2951
G3 X-0.412 Y-0.2991 I0.0062 J0.0006
G1 X-0.3035 Y-0.399
G3 X-0.2987 Y-0.4006 I0.0042 J0.0046
G1 X-0.2952 Y-0.4001
X-0.2893 Y-0.4004
X-0.2833 Y-0.4003
X-0.278 Y-0.3977
X-0.2735 Y-0.3937
X-0.2699 Y-0.3889
X-0.2672 Y-0.3835
X-0.2651 Y-0.3779
X-0.2638 Y-0.372
X-0.263 Y-0.3661
X-0.2628 Y-0.3601
X-0.2631 Y-0.3541
X-0.2638 Y-0.3481
X-0.265 Y-0.3417
X-0.2667 Y-0.3352
X-0.269 Y-0.3284
X-0.272 Y-0.3211
X-0.2757 Y-0.3136
X-0.2801 Y-0.306
X-0.2852 Y-0.2985
X-0.2908 Y-0.2912
X-0.2972 Y-0.2841
X-0.3042 Y-0.2773
X-0.3116 Y-0.2709
X-0.3194 Y-0.2651
X-0.3275 Y-0.2599
X-0.3356 Y-0.2554
X-0.3435 Y-0.2517
X-0.3512 Y-0.2487
X-0.3586 Y-0.2464
X-0.3658 Y-0.2447
X-0.3721 Y-0.2436
X-0.3781 Y-0.243
X-0.3841 Y-0.2429
X-0.3901 Y-0.2432
X-0.3961 Y-0.2439
X-0.4019 Y-0.2453
X-0.4061 Y-0.2469
X-0.4117 Y-0.2502
X-0.4159 Y-0.2552
X-0.4182 Y-0.2613
X-0.419 Y-0.266
X-0.42 Y-0.2693
X-0.4202 Y-0.2706
X-0.4203 Y-0.2712
X-0.4202 Y-0.2718
X-0.4201 Y-0.2724
X-0.42 Y-0.273
X-0.4189 Y-0.2753
X-0.4161 Y-0.2817
X-0.4159 Y-0.2822
X-0.4156 Y-0.2835
G3 X-0.4138 Y-0.2864 I0.006 J0.0016
G1 X-0.2931 Y-0.3987
G3 X-0.2893 Y-0.4004 I0.0042 J0.0045
G1 X-0.2887
X-0.287 Y-0.4008
X-0.2823 Y-0.4018
X-0.2817 Y-0.402
X-0.276 Y-0.4036
X-0.2701 Y-0.4022
X-0.2649 Y-0.3992
X-0.2604 Y-0.3953
X-0.2567 Y-0.3906
X-0.2536 Y-0.3854
X-0.2512 Y-0.3799
X-0.2494 Y-0.3742
X-0.2481 Y-0.3683
X-0.2474 Y-0.3624
X-0.2471 Y-0.3564
X-0.2472 Y-0.3504
X-0.2478 Y-0.3439
X-0.249 Y-0.337
X-0.2507 Y-0.3295
X-0.2529 Y-0.3221
X-0.2559 Y-0.3144
X-0.2596 Y-0.3063
X-0.264 Y-0.2981
X-0.2692 Y-0.2899
X-0.2752 Y-0.2817
X-0.2819 Y-0.2738
X-0.2892 Y-0.2662
X-0.2971 Y-0.259
X-0.3055 Y-0.2524
X-0.3141 Y-0.2466
X-0.3228 Y-0.2414
X-0.3316 Y-0.237
X-0.3403 Y-0.2333
X-0.3487 Y-0.2305
X-0.3567 Y-0.2283
X-0.3643 Y-0.2268
X-0.3716 Y-0.2259
X-0.378 Y-0.2255
X-0.3842
X-0.3901 Y-0.226
X-0.3961 Y-0.2269
X-0.4019 Y-0.2283
X-0.4076 Y-0.2303
X-0.4089 Y-0.231
X-0.4133 Y-0.2342
X-0.4165 Y-0.2386
X-0.4183 Y-0.2437
X-0.4184 Y-0.2492
X-0.418 Y-0.252
X-0.4177 Y-0.2566
X-0.4182 Y-0.2613
G3 X-0.4164 Y-0.2661 I0.0062 J-0.0004
G1 X-0.2837 Y-0.4005
X-0.2835 Y-0.4007
G3 X-0.2817 Y-0.402 I0.0044 J0.0044
G1 X-0.2753 Y-0.4047
X-0.2743 Y-0.4054
X-0.2717 Y-0.4069
X-0.2659 Y-0.4081
X-0.26 Y-0.407
X-0.2545 Y-0.4045
X-0.2496 Y-0.401
X-0.2454 Y-0.3967
X-0.2417 Y-0.392
X-0.2387 Y-0.3868
X-0.2361 Y-0.3814
X-0.2342 Y-0.3757
X-0.2326 Y-0.3699
X-0.2316 Y-0.364
X-0.231 Y-0.3578
X-0.2307 Y-0.3512
X-0.2309 Y-0.3444
X-0.2317 Y-0.3371
X-0.233 Y-0.3293
X-0.2349 Y-0.3211
X-0.2376 Y-0.3125
X-0.241 Y-0.3038
X-0.245 Y-0.2952
X-0.2499 Y-0.2863
X-0.2557 Y-0.2773
X-0.2623 Y-0.2684
X-0.2697 Y-0.2598
X-0.2778 Y-0.2515
X-0.2864 Y-0.2438
X-0.2955 Y-0.2368
X-0.3049 Y-0.2304
X-0.3145 Y-0.2248
X-0.3242 Y-0.2201
X-0.3338 Y-0.2161
X-0.3431 Y-0.213
X-0.3519 Y-0.2107
X-0.3603 Y-0.2091
X-0.3684 Y-0.2081
X-0.3759 Y-0.2077
X-0.383 Y-0.2078
X-0.3895 Y-0.2084
X-0.3955 Y-0.2093
X-0.4013 Y-0.2107
X-0.407 Y-0.2126
X-0.4124 Y-0.2152
X-0.4136 Y-0.216
X-0.4177 Y-0.2197
X-0.4204 Y-0.2243
X-0.4216 Y-0.2296
X-0.4212 Y-0.2351
X-0.4205 Y-0.238
X-0.4186 Y-0.2473
X-0.4184 Y-0.2492
G3 X-0.4168 Y-0.2523 I0.0061 J0.0011
G1 X-0.276 Y-0.4036
X-0.2743 Y-0.4054
X-0.2707 Y-0.4079
X-0.267 Y-0.4106
X-0.2647 Y-0.4125
X-0.259 Y-0.4144
X-0.253 Y-0.4143
X-0.2472 Y-0.4127
X-0.2418 Y-0.41
X-0.2369 Y-0.4066
X-0.2325 Y-0.4025
X-0.2287 Y-0.3979
X-0.2253 Y-0.3929
X-0.2224 Y-0.3877
X-0.22 Y-0.3822
X-0.218 Y-0.3765
X-0.2164 Y-0.3707
X-0.2152 Y-0.3646
X-0.2143 Y-0.3578
X-0.2138 Y-0.3505
X-0.2139 Y-0.3428
X-0.2144 Y-0.3349
X-0.2156 Y-0.3264
X-0.2175 Y-0.3175
X-0.2201 Y-0.3082
X-0.2222 Y-0.3023
X-0.2238 Y-0.2991
X-0.226 Y-0.2962
X-0.2288 Y-0.294
X-0.2311 Y-0.292
X-0.28 Y-0.2451
X-0.2821 Y-0.2426
X-0.2898 Y-0.2333
X-0.2931 Y-0.2286
X-0.2952 Y-0.2254
X-0.2988 Y-0.2206
X-0.3029 Y-0.2163
X-0.3075 Y-0.2124
X-0.3124 Y-0.2089
X-0.3179 Y-0.2055
X-0.3244 Y-0.202
X-0.3314 Y-0.1989
X-0.3389 Y-0.1962
X-0.3469 Y-0.1938
X-0.3552 Y-0.192
X-0.3635 Y-0.1908
X-0.3717 Y-0.1901
X-0.3792 Y-0.19
X-0.3859 Y-0.1903
X-0.3921 Y-0.1911
X-0.398 Y-0.1922
X-0.4038 Y-0.1938
X-0.4095 Y-0.1958
X-0.4149 Y-0.1984
X-0.4199 Y-0.2017
X-0.4244 Y-0.2057
X-0.4274 Y-0.2107
X-0.4285 Y-0.2165
X-0.4277 Y-0.2223
X-0.425 Y-0.2276
G3 X-0.4204 Y-0.2299 I0.0048 J0.0039
G1 X-0.3007 Y-0.2349
G3 X-0.2952 Y-0.2254 I0.0003 J0.0062
G1 X-0.3118 Y-0.2006
X-0.3154 Y-0.1958
X-0.3195 Y-0.1915
X-0.3242 Y-0.1878
X-0.3293 Y-0.1846
X-0.3346 Y-0.1818
X-0.3401 Y-0.1795
X-0.3465 Y-0.1773
X-0.3532 Y-0.1754
X-0.3603 Y-0.174
X-0.3676 Y-0.1731
X-0.3749 Y-0.1726
X-0.3822 Y-0.1727
X-0.3889 Y-0.1732
X-0.3952 Y-0.1741
X-0.4012 Y-0.1753
X-0.407 Y-0.177
X-0.4126 Y-0.179
X-0.4181 Y-0.1815
X-0.4233 Y-0.1845
X-0.4281 Y-0.1881
X-0.4304 Y-0.1903
X-0.4321 Y-0.1922
X-0.4335 Y-0.1943
X-0.4346 Y-0.1966
X-0.4362 Y-0.2006
X-0.4373 Y-0.2032
X-0.4378 Y-0.2044
X-0.4382 Y-0.2053
X-0.4396 Y-0.2089
G3 X-0.4317 Y-0.2112 I0.0041 J-0.0008
G1 X-0.4307 Y-0.2087
G3 X-0.4382 Y-0.2053 I-0.0038 J0.0016
G1 X-0.4394 Y-0.2081
X-0.4397 Y-0.209
Y-0.21
Y-0.2109
X-0.4394 Y-0.2119
X-0.4391 Y-0.2129
X-0.4389 Y-0.2134
X-0.4387 Y-0.2139
X-0.4381 Y-0.2146
X-0.4376 Y-0.2152
X-0.4371 Y-0.2156
X-0.436 Y-0.2163
X-0.434 Y-0.2177
X-0.4321 Y-0.2193
X-0.4293 Y-0.2219
X-0.4277 Y-0.224
X-0.425 Y-0.2276
G3 X-0.419 Y-0.2298 I0.0048 J0.0039
G1 X-0.3159 Y-0.21
G3 X-0.3118 Y-0.2006 I-0.0012 J0.0061
G1 X-0.322 Y-0.1853
X-0.3241 Y-0.182
X-0.3255 Y-0.1796
X-0.3288 Y-0.1746
X-0.3331 Y-0.1704
X-0.338 Y-0.1669
X-0.3432 Y-0.164
X-0.3487 Y-0.1615
X-0.3544 Y-0.1596
X-0.3602 Y-0.1581
X-0.3664 Y-0.1569
X-0.373 Y-0.1561
X-0.3797 Y-0.1558
X-0.3865 Y-0.1559
X-0.3932 Y-0.1565
X-0.3996 Y-0.1575
X-0.4059 Y-0.1589
X-0.4117 Y-0.1606
X-0.4173 Y-0.1627
X-0.4201 Y-0.1639
X-0.4248 Y-0.1671
X-0.4283 Y-0.1716
X-0.4302 Y-0.177
X-0.431 Y-0.182
X-0.4319 Y-0.1866
X-0.4329 Y-0.1913
X-0.434 Y-0.195
X-0.4343 Y-0.196
X-0.4346 Y-0.1966
G3 X-0.4277 Y-0.2048 I0.0058 J-0.0021
G1 X-0.33 Y-0.1887
G3 X-0.3255 Y-0.1796 I-0.001 J0.0061
G1 X-0.3313 Y-0.1699
X-0.3324 Y-0.168
X-0.3338 Y-0.1643
X-0.3363 Y-0.1588
X-0.3402 Y-0.1542
X-0.3448 Y-0.1504
X-0.35 Y-0.1473
X-0.3554 Y-0.1448
X-0.3611 Y-0.1428
X-0.3669 Y-0.1413
X-0.3728 Y-0.1402
X-0.379 Y-0.1396
X-0.3855 Y-0.1393
X-0.3921 Y-0.1395
X-0.3988 Y-0.1402
X-0.4049 Y-0.1412
X-0.4107 Y-0.1425
X-0.4164 Y-0.1444
X-0.4186 Y-0.1453
X-0.4243 Y-0.1493
X-0.428 Y-0.1551
X-0.4293 Y-0.1619
X-0.4291 Y-0.1705
X-0.4293 Y-0.1719
X-0.4302 Y-0.177
G3 X-0.4232 Y-0.184 I0.0061 J-0.0008
G1 X-0.3388 Y-0.1725
G3 X-0.3338 Y-0.1643 I-0.0008 J0.0061
G1 X-0.3402 Y-0.1479
X-0.3427 Y-0.1424
X-0.3465 Y-0.1378
X-0.3511 Y-0.1339
X-0.3562 Y-0.1308
X-0.3616 Y-0.1283
X-0.3673 Y-0.1263
X-0.3731 Y-0.1248
X-0.379 Y-0.1238
X-0.385 Y-0.1232
X-0.3913 Y-0.123
X-0.3974 Y-0.1233
X-0.4034 Y-0.1239
X-0.4093 Y-0.125
X-0.4151 Y-0.1267
X-0.4206 Y-0.1289
X-0.4216 Y-0.1295
X-0.4269 Y-0.1341
X-0.4299 Y-0.1405
X-0.4302 Y-0.1476
X-0.4299 Y-0.1493
X-0.4295 Y-0.154
X-0.4293 Y-0.1586
Y-0.1619
G3 X-0.4221 Y-0.1677 I0.0062 J0.0003
G1 X-0.3451 Y-0.1561
G3 X-0.3402 Y-0.1479 I-0.0009 J0.0061
G1 X-0.3466 Y-0.1315
X-0.3491 Y-0.126
X-0.3528 Y-0.1213
X-0.3574 Y-0.1175
X-0.3625 Y-0.1143
X-0.368 Y-0.1118
X-0.3737 Y-0.1099
X-0.3795 Y-0.1085
X-0.3854 Y-0.1075
X-0.3914 Y-0.107
X-0.3974
X-0.4034 Y-0.1075
X-0.4093 Y-0.1083
X-0.4152 Y-0.1098
X-0.4208 Y-0.1119
X-0.4261 Y-0.1146
X-0.4268 Y-0.1152
X-0.4307 Y-0.1191
X-0.4332 Y-0.1241
X-0.434 Y-0.1295
X-0.4331 Y-0.135
X-0.4316 Y-0.14
X-0.4307 Y-0.1446
X-0.4302 Y-0.1476
G3 X-0.423 Y-0.1525 I0.0061 J0.0012
G1 X-0.3514 Y-0.1396
G3 X-0.3466 Y-0.1315 I-0.0011 J0.0061
G1 X-0.353 Y-0.1152
X-0.3554 Y-0.1098
X-0.3592 Y-0.1051
X-0.3637 Y-0.1012
X-0.3688 Y-0.098
X-0.3743 Y-0.0956
X-0.38 Y-0.0937
X-0.3859 Y-0.0924
X-0.3918 Y-0.0915
X-0.3978 Y-0.0912
X-0.4038 Y-0.0914
X-0.4098 Y-0.0921
X-0.4156 Y-0.0933
X-0.4214 Y-0.0951
X-0.4268 Y-0.0975
X-0.432 Y-0.1006
X-0.4331 Y-0.1016
X-0.4368 Y-0.1059
X-0.4389 Y-0.1111
X-0.4393 Y-0.1167
X-0.4379 Y-0.1222
X-0.4362 Y-0.126
X-0.434 Y-0.1322
X-0.4331 Y-0.135
G3 X-0.4259 Y-0.1389 I0.0058 J0.0022
G1 X-0.3575 Y-0.1233
G3 X-0.353 Y-0.1152 I-0.0014 J0.006
G1 X-0.3561 Y-0.1073
X-0.3583 Y-0.1001
X-0.3604 Y-0.0944
X-0.364 Y-0.0896
X-0.3685 Y-0.0857
X-0.3736 Y-0.0825
X-0.379 Y-0.08
X-0.3847 Y-0.0781
X-0.3905 Y-0.0768
X-0.3965 Y-0.076
X-0.4025 Y-0.0757
X-0.4085 Y-0.076
X-0.4144 Y-0.0768
X-0.4203 Y-0.0781
X-0.426 Y-0.0799
X-0.4315 Y-0.0824
X-0.4366 Y-0.0854
X-0.4412 Y-0.0893
X-0.4414 Y-0.0894
X-0.4445 Y-0.0942
X-0.446 Y-0.0998
X-0.4455 Y-0.1055
X-0.4433 Y-0.1108
X-0.4425 Y-0.112
X-0.4403 Y-0.1166
X-0.4379 Y-0.1222
G3 X-0.4307 Y-0.1255 I0.0056 J0.0027
G1 X-0.3627 Y-0.1077
G3 X-0.3583 Y-0.1001 I-0.0016 J0.006
G1 X-0.3604 Y-0.0933
X-0.3613 Y-0.0886
X-0.3616 Y-0.0872
X-0.3628 Y-0.0814
X-0.3659 Y-0.0762
X-0.3701 Y-0.0719
X-0.3749 Y-0.0684
X-0.3802 Y-0.0656
X-0.3858 Y-0.0634
X-0.3916 Y-0.0618
X-0.3975 Y-0.0607
X-0.4035 Y-0.0603
X-0.4095
X-0.4154 Y-0.0608
X-0.4214 Y-0.0618
X-0.4272 Y-0.0634
X-0.4328 Y-0.0654
X-0.4382 Y-0.068
X-0.4433 Y-0.0712
X-0.4479 Y-0.075
X-0.4496 Y-0.077
X-0.4527 Y-0.0818
X-0.454 Y-0.0873
X-0.4535 Y-0.093
X-0.4513 Y-0.0982
X-0.4433 Y-0.1108
G3 X-0.4365 Y-0.1133 I0.0051 J0.0035
G1 X-0.3661 Y-0.094
G3 X-0.3616 Y-0.0872 I-0.0016 J0.006
G1 X-0.3638 Y-0.073
X-0.365 Y-0.0672
X-0.3679 Y-0.0619
X-0.3719 Y-0.0575
X-0.3767 Y-0.0538
X-0.3819 Y-0.0508
X-0.3874 Y-0.0484
X-0.3931 Y-0.0466
X-0.399 Y-0.0454
X-0.405 Y-0.0448
X-0.411 Y-0.0446
X-0.4169 Y-0.045
X-0.4229 Y-0.0458
X-0.4288 Y-0.047
X-0.4345 Y-0.0488
X-0.4401 Y-0.051
X-0.4454 Y-0.0537
X-0.4505 Y-0.057
X-0.4551 Y-0.0608
X-0.4592 Y-0.0652
X-0.4598 Y-0.0662
X-0.4623 Y-0.0714
X-0.4629 Y-0.0771
X-0.4617 Y-0.0828
X-0.4587 Y-0.0877
X-0.4579 Y-0.0886
X-0.4546 Y-0.0933
X-0.4527 Y-0.0961
X-0.4513 Y-0.0982
G3 X-0.4446 Y-0.1007 I0.0051 J0.0035
G1 X-0.3683 Y-0.0798
G3 X-0.3638 Y-0.073 I-0.0016 J0.006
G1 X-0.3661 Y-0.0581
X-0.3674 Y-0.0522
X-0.3702 Y-0.0469
X-0.3742 Y-0.0424
X-0.3789 Y-0.0387
X-0.384 Y-0.0356
X-0.3895 Y-0.0331
X-0.3952 Y-0.0313
X-0.401 Y-0.03
X-0.407 Y-0.0292
X-0.413 Y-0.0289
X-0.419 Y-0.0291
X-0.4249 Y-0.0297
X-0.4309 Y-0.0308
X-0.4367 Y-0.0322
X-0.4423 Y-0.0342
X-0.4478 Y-0.0366
X-0.4531 Y-0.0394
X-0.4582 Y-0.0427
X-0.4628 Y-0.0464
X-0.467 Y-0.0507
X-0.4706 Y-0.0556
X-0.4714 Y-0.0571
X-0.4732 Y-0.0626
Y-0.0684
X-0.4713 Y-0.0739
X-0.4677 Y-0.0785
X-0.4667 Y-0.0794
X-0.4619 Y-0.084
X-0.4587 Y-0.0877
G3 X-0.4524 Y-0.0894 I0.0046 J0.0042
G1 X-0.3705 Y-0.0648
G3 X-0.3661 Y-0.0581 I-0.0018 J0.0059
G1 X-0.3687 Y-0.042
X-0.3699 Y-0.0361
X-0.3729 Y-0.031
X-0.377 Y-0.0265
X-0.3817 Y-0.0228
X-0.3869 Y-0.0198
X-0.3924 Y-0.0174
X-0.3981 Y-0.0155
X-0.4039 Y-0.0142
X-0.4099 Y-0.0134
X-0.4159 Y-0.013
X-0.4219 Y-0.0131
X-0.4279 Y-0.0136
X-0.4338 Y-0.0145
X-0.4396 Y-0.0159
X-0.4454 Y-0.0176
X-0.451 Y-0.0197
X-0.4564 Y-0.0223
X-0.4617 Y-0.0252
X-0.4667 Y-0.0286
X-0.4713 Y-0.0323
X-0.4756 Y-0.0365
X-0.4794 Y-0.0412
X-0.4826 Y-0.0463
X-0.4834 Y-0.0481
X-0.4848 Y-0.0534
X-0.4845 Y-0.0588
X-0.4825 Y-0.0639
X-0.479 Y-0.0682
X-0.4677 Y-0.0785
G3 X-0.4616 Y-0.0796 I0.004 J0.0047
G1 X-0.3728 Y-0.0486
G3 X-0.3687 Y-0.042 I-0.002 J0.0059
G1 X-0.3701 Y-0.0326
X-0.3708 Y-0.028
X-0.3709 Y-0.0266
X-0.3719 Y-0.0207
X-0.375 Y-0.0155
X-0.3791 Y-0.0111
X-0.3838 Y-0.0074
X-0.3889 Y-0.0043
X-0.3944 Y-0.0018
X-0.4001 Y0.0001
X-0.4059 Y0.0016
X-0.4118 Y0.0025
X-0.4178 Y0.003
X-0.4238 Y0.0031
X-0.4299 Y0.0027
X-0.4362 Y0.0019
X-0.4424 Y0.0007
X-0.4486 Y-0.001
X-0.4547 Y-0.0031
X-0.4605 Y-0.0055
X-0.4659 Y-0.0082
X-0.471 Y-0.0112
X-0.476 Y-0.0146
X-0.4806 Y-0.0184
X-0.485 Y-0.0225
X-0.4889 Y-0.027
X-0.4924 Y-0.032
X-0.4952 Y-0.0373
X-0.4957 Y-0.0386
X-0.4967 Y-0.0456
X-0.4949 Y-0.0524
X-0.4906 Y-0.058
X-0.4874 Y-0.0606
X-0.4853 Y-0.0625
X-0.479 Y-0.0682
G3 X-0.4729 Y-0.0693 I0.004 J0.0047
G1 X-0.375 Y-0.0329
G3 X-0.3709 Y-0.0266 I-0.0022 J0.0058
G1 X-0.3722 Y-0.0157
X-0.3723 Y-0.0152
X-0.3722 Y-0.014
Y-0.008
X-0.3746 Y-0.0025
X-0.3783 Y0.0023
X-0.3827 Y0.0063
X-0.3876 Y0.0098
X-0.3928 Y0.0127
X-0.3984 Y0.0149
X-0.4041 Y0.0167
X-0.41 Y0.018
X-0.4159 Y0.0189
X-0.4221 Y0.0193
X-0.4285 Y0.0194
X-0.4351 Y0.019
X-0.4417 Y0.0181
X-0.4485 Y0.0167
X-0.4552 Y0.0149
X-0.4617 Y0.0127
X-0.468 Y0.01
X-0.474 Y0.007
X-0.4796 Y0.0036
X-0.4849 Y0
X-0.4896 Y-0.0037
X-0.494 Y-0.0077
X-0.4981 Y-0.0121
X-0.5018 Y-0.0168
X-0.505 Y-0.0219
X-0.5077 Y-0.0273
X-0.5083 Y-0.0293
X-0.5092 Y-0.0352
X-0.5081 Y-0.041
X-0.5051 Y-0.0461
X-0.5006 Y-0.05
X-0.4984 Y-0.0513
X-0.4947 Y-0.0545
X-0.4906 Y-0.058
G3 X-0.4846 Y-0.059 I0.0039 J0.0048
G1 X-0.3762 Y-0.0192
G3 X-0.3722 Y-0.014 I-0.0021 J0.0058
G1 X-0.3715 Y-0.0009
X-0.3714 Y0.0051
X-0.3735 Y0.0107
X-0.3768 Y0.0157
X-0.3809 Y0.0201
X-0.3856 Y0.0238
X-0.3907 Y0.027
X-0.3961 Y0.0297
X-0.4017 Y0.0318
X-0.4074 Y0.0334
X-0.4133 Y0.0347
X-0.4196 Y0.0355
X-0.4261 Y0.036
X-0.4329
X-0.4399 Y0.0355
X-0.4471 Y0.0346
X-0.4545 Y0.0331
X-0.4618 Y0.031
X-0.469 Y0.0285
X-0.476 Y0.0255
X-0.4827 Y0.0221
X-0.4889 Y0.0184
X-0.4946 Y0.0144
X-0.4998 Y0.0103
X-0.5044 Y0.0061
X-0.5086 Y0.0017
X-0.5124 Y-0.0029
X-0.5158 Y-0.0078
X-0.5187 Y-0.0131
X-0.5211 Y-0.0186
X-0.5226 Y-0.0244
Y-0.0247
X-0.5222 Y-0.0315
X-0.5191 Y-0.0377
X-0.5139 Y-0.0422
X-0.504 Y-0.0479
X-0.5006 Y-0.05
G3 X-0.4955 Y-0.0504 I0.003 J0.0054
G1 X-0.3755 Y-0.0062
G3 X-0.3715 Y-0.0009 I-0.0021 J0.0058
G1 X-0.3706 Y0.0131
X-0.3705 Y0.0191
X-0.3724 Y0.0248
X-0.3755 Y0.0299
X-0.3794 Y0.0345
X-0.3839 Y0.0384
X-0.3889 Y0.0418
X-0.3941 Y0.0447
X-0.3996 Y0.0471
X-0.4053 Y0.049
X-0.4111 Y0.0505
X-0.4175 Y0.0517
X-0.4243 Y0.0526
X-0.4313 Y0.0529
X-0.4386 Y0.0528
X-0.4463 Y0.0522
X-0.4545 Y0.0509
X-0.4581 Y0.0497
X-0.4614 Y0.0477
X-0.4642 Y0.0451
X-0.4667 Y0.042
X-0.4715 Y0.0373
X-0.4768 Y0.0327
X-0.4807 Y0.0295
X-0.4884 Y0.0233
X-0.5006 Y0.014
X-0.504 Y0.0118
X-0.5133 Y0.0061
X-0.5161 Y0.0047
X-0.5214 Y0.0019
X-0.5259 Y-0.0021
X-0.5297 Y-0.0067
X-0.5327 Y-0.0119
X-0.5335 Y-0.0143
X-0.5346 Y-0.0207
X-0.5333 Y-0.0271
X-0.5297 Y-0.0325
X-0.5245 Y-0.0363
G3 X-0.5161 Y-0.0323 I0.0024 J0.0057
G1 X-0.5077 Y-0.0027
G3 X-0.5161 Y0.0047 I-0.006 J0.0017
G1 X-0.5332 Y-0.0034
X-0.5385 Y-0.0062
X-0.5389 Y-0.0067
X-0.542 Y-0.0122
X-0.5428 Y-0.0185
X-0.5412 Y-0.0246
X-0.5374 Y-0.0297
X-0.532 Y-0.033
G3 X-0.5235 Y-0.0268 I0.0023 J0.0058
G1 X-0.5246 Y-0.0087
G3 X-0.5332 Y-0.0034 I-0.0062 J-0.0004
G1 X-0.5427 Y-0.0078
X-0.5454 Y-0.0092
X-0.5481 Y-0.0133
X-0.549 Y-0.0182
X-0.5479 Y-0.0231
X-0.5451 Y-0.0271
X-0.5408 Y-0.0297
G3 X-0.5323 Y-0.0288 I0.0033 J0.01
X-0.5427 Y-0.0078 I-0.0058 J0.0102
G1 X-0.546 Y-0.0093
X-0.5486 Y-0.0104
X-0.5497 Y-0.0109
X-0.5507 Y-0.0113
X-0.552 Y-0.012
X-0.5539 Y-0.0161
X-0.5537 Y-0.0207
X-0.5515 Y-0.0247
X-0.5477 Y-0.0272
G3 X-0.5419 Y-0.026 I0.0019 J0.0057
X-0.5507 Y-0.0113 I-0.0056 J0.0066
G1 X-0.5553 Y-0.0133
X-0.5558 Y-0.0136
X-0.5563 Y-0.014
X-0.5571 Y-0.0149
X-0.5577 Y-0.0157
G3 X-0.5564 Y-0.0207 I0.0039 J-0.0017
X-0.5511 Y-0.0141 I0.0026 J0.0033
X-0.5563 Y-0.014 I-0.0026 J-0.0033
G1 X-0.5569 Y-0.0146
X-0.5573 Y-0.0152
X-0.5577 Y-0.0157
X-0.5579 Y-0.0163
X-0.5582 Y-0.0169
X-0.5583 Y-0.0175
X-0.5584 Y-0.0181
Y-0.0187
Y-0.0192
X-0.5583 Y-0.0198
X-0.5582 Y-0.0204
X-0.5579 Y-0.021
X-0.5577 Y-0.0216
X-0.5573 Y-0.0221
X-0.5569 Y-0.0227
X-0.5563 Y-0.0233
X-0.5553 Y-0.0242
X-0.5547 Y-0.0246
X-0.5542 Y-0.0248
X-0.5413 Y-0.0295
X-0.532 Y-0.033
X-0.5273 Y-0.035
X-0.5227 Y-0.0372
X-0.5139 Y-0.0422
G3 X-0.5089 Y-0.0425 I0.0029 J0.0055
G1 X-0.3746 Y0.0079
G3 X-0.3706 Y0.0131 I-0.0022 J0.0058
G1 X-0.3697 Y0.028
X-0.3696 Y0.034
X-0.3714 Y0.0397
X-0.3744 Y0.0449
X-0.3783 Y0.0496
X-0.3827 Y0.0536
X-0.3875 Y0.0572
X-0.3927 Y0.0602
X-0.3981 Y0.0628
X-0.4037 Y0.0649
X-0.4095 Y0.0667
X-0.416 Y0.0681
X-0.423 Y0.0693
X-0.4304 Y0.0699
X-0.4365 Y0.0701
X-0.4386 Y0.07
X-0.444 Y0.0689
X-0.4488 Y0.0661
X-0.4526 Y0.062
X-0.4596 Y0.0513
X-0.462 Y0.0478
X-0.4628 Y0.0467
X-0.4642 Y0.0451
G3 X-0.4602 Y0.0351 I0.0049 J-0.0038
G1 X-0.3768 Y0.0225
G3 X-0.3697 Y0.028 I0.0009 J0.0061
G1 X-0.3687 Y0.0437
Y0.0497
X-0.3705 Y0.0554
X-0.3735 Y0.0606
X-0.3773 Y0.0652
X-0.3816 Y0.0694
X-0.3864 Y0.073
X-0.3915 Y0.0761
X-0.3969 Y0.0788
X-0.4024 Y0.0811
X-0.4084 Y0.0831
X-0.4146 Y0.0847
X-0.4205 Y0.0858
X-0.4265 Y0.0864
X-0.4323 Y0.0855
X-0.4374 Y0.0829
X-0.4414 Y0.0787
X-0.4504 Y0.0653
X-0.4526 Y0.062
G3 X-0.4485 Y0.0527 I0.0053 J-0.0032
G1 X-0.3761 Y0.0382
G3 X-0.3687 Y0.0437 I0.0012 J0.0061
G1 X-0.3677 Y0.0586
X-0.3676 Y0.0646
X-0.3692 Y0.0704
X-0.372 Y0.0757
X-0.3757 Y0.0804
X-0.3799 Y0.0847
X-0.3845 Y0.0885
X-0.3896 Y0.0918
X-0.3948 Y0.0947
X-0.4003 Y0.0971
X-0.4059 Y0.0992
X-0.4117 Y0.1007
X-0.4177 Y0.1015
X-0.4191 Y0.1016
X-0.4245 Y0.1008
X-0.4295 Y0.0984
X-0.4334 Y0.0947
X-0.436 Y0.0898
X-0.4365 Y0.0887
X-0.4387 Y0.0837
X-0.4409 Y0.0793
X-0.4414 Y0.0787
